; filename = composition.3w
; machine = daVinciF10
; material = abs
; layer_height = 0.2
; total_layers = 173
; total_filament = 0.00
; extruder = 1
G21 ; set units to millimeters
M107
M190 S100 ; wait for bed temperature to be reached
M104 S230 ; set temperature
M109 S230 ; wait for temperature to be reached
G90 ; use absolute coordinates
G92 E0
M82 ; use absolute distances for extrusion
G1 F1800.000 E-1.00000
G92 E0
G1 Z0.300 F7800.000
G1 X81.765 Y82.676 F7800.000
G1 E1.00000 F1800.000
G1 X82.795 Y81.666 E1.10023 F540.000
G1 X83.405 Y81.116 E1.15730
G1 X84.135 Y80.496 E1.22385
G1 X84.725 Y80.026 E1.27626
G1 X85.695 Y79.306 E1.36019
G1 X86.935 Y78.516 E1.46235
G1 X87.675 Y78.086 E1.52182
G1 X88.685 Y77.546 E1.60140
G1 X89.445 Y77.176 E1.66013
G1 X90.955 Y76.536 E1.77408
G1 X91.755 Y76.246 E1.83321
G1 X92.855 Y75.896 E1.91341
G1 X93.675 Y75.666 E1.97259
G1 X95.235 Y75.316 E2.08367
G1 X96.905 Y75.046 E2.20121
G1 X98.585 Y74.896 E2.31841
G1 X99.385 Y74.866 E2.37403
G1 X99.995 Y74.856 E2.41642
G1 X101.395 Y74.896 E2.51374
G1 X102.995 Y75.036 E2.62533
G1 X104.685 Y75.296 E2.74414
G1 X106.175 Y75.626 E2.85018
G1 X106.915 Y75.826 E2.90344
G1 X108.095 Y76.196 E2.98936
G1 X108.905 Y76.486 E3.04914
G1 X110.315 Y77.076 E3.15534
G1 X111.055 Y77.426 E3.21222
G1 X112.165 Y78.006 E3.29924
G1 X113.515 Y78.806 E3.40827
G1 X114.655 Y79.576 E3.50386
G1 X115.345 Y80.086 E3.56348
G1 X116.625 Y81.146 E3.67895
G1 X117.245 Y81.716 E3.73747
G1 X118.075 Y82.536 E3.81854
G1 X118.655 Y83.156 E3.87753
G1 X119.655 Y84.336 E3.98500
G1 X120.545 Y85.526 E4.08825
G1 X120.805 Y85.896 E4.11967
G1 X121.535 Y87.036 E4.21373
G1 X121.935 Y87.726 E4.26914
G1 X122.595 Y88.996 E4.36859
G1 X122.965 Y89.796 E4.42983
G1 X123.475 Y91.026 E4.52235
G1 X123.765 Y91.826 E4.58147
G1 X124.135 Y93.016 E4.66806
G1 X124.365 Y93.856 E4.72858
G1 X124.635 Y94.986 E4.80930
G1 X124.865 Y96.346 E4.90514
G1 X124.965 Y97.106 E4.95840
G1 X125.095 Y98.596 E5.06232
G1 X125.125 Y99.456 E5.12211
G1 X125.105 Y101.126 E5.23816
G1 X125.035 Y102.166 E5.31058
G1 X124.895 Y103.416 E5.39798
G1 X124.765 Y104.266 E5.45772
G1 X124.455 Y105.776 E5.56483
G1 X124.255 Y106.556 E5.62078
G1 X123.945 Y107.616 E5.69751
G1 X123.675 Y108.426 E5.75684
G1 X123.135 Y109.826 E5.86110
G1 X122.815 Y110.546 E5.91584
G1 X122.165 Y111.856 E6.01745
G1 X121.635 Y112.766 E6.09062
G1 X121.185 Y113.496 E6.15021
G1 X120.475 Y114.556 E6.23886
G1 X119.945 Y115.276 E6.30097
G1 X119.025 Y116.416 E6.40276
G1 X118.445 Y117.066 E6.46329
G1 X117.465 Y118.066 E6.56057
G1 X116.835 Y118.656 E6.62055
G1 X115.735 Y119.596 E6.72108
G1 X115.025 Y120.146 E6.78349
G1 X114.125 Y120.786 E6.86022
G1 X112.875 Y121.586 E6.96333
G1 X112.195 Y121.976 E7.01780
G1 X110.985 Y122.596 E7.11227
G1 X110.185 Y122.966 E7.17351
G1 X109.005 Y123.456 E7.26229
G1 X108.185 Y123.756 E7.32296
G1 X106.825 Y124.186 E7.42206
G1 X105.995 Y124.406 E7.48173
G1 X104.685 Y124.686 E7.57480
G1 X103.885 Y124.826 E7.63123
G1 X102.835 Y124.976 E7.70493
G1 X101.465 Y125.086 E7.80043
G1 X100.735 Y125.116 E7.85119
G1 X99.535 Y125.126 E7.93457
G1 X98.705 Y125.096 E7.99228
G1 X97.665 Y125.026 E8.06471
G1 X96.325 Y124.866 E8.15847
G1 X95.545 Y124.736 E8.21342
G1 X94.375 Y124.486 E8.29655
G1 X93.565 Y124.286 E8.35452
G1 X92.435 Y123.966 E8.43612
G1 X91.645 Y123.706 E8.49391
G1 X90.055 Y123.086 E8.61248
G1 X89.265 Y122.726 E8.67281
G1 X88.145 Y122.156 E8.76012
G1 X86.805 Y121.386 E8.86751
G1 X85.425 Y120.476 E8.98236
G1 X84.705 Y119.946 E9.04448
G1 X83.475 Y118.946 E9.15463
G1 X82.835 Y118.366 E9.21464
G1 X81.935 Y117.476 E9.30258
G1 X81.335 Y116.836 E9.36354
G1 X80.365 Y115.696 E9.46754
G1 X79.825 Y114.996 E9.52897
G1 X79.205 Y114.126 E9.60320
G1 X78.395 Y112.856 E9.70786
G1 X77.995 Y112.156 E9.76388
G1 X77.455 Y111.106 E9.84592
G1 X77.075 Y110.306 E9.90745
G1 X76.445 Y108.776 E10.02242
G1 X76.165 Y107.976 E10.08131
G1 X75.805 Y106.826 E10.16504
G1 X75.585 Y105.996 E10.22470
G1 X75.295 Y104.656 E10.31996
G1 X75.125 Y103.666 E10.38976
G1 X75.025 Y102.916 E10.44233
G1 X74.895 Y101.396 E10.54833
G1 X74.865 Y100.536 E10.60812
G1 X74.865 Y99.436 E10.68455
G1 X74.895 Y98.596 E10.74295
G1 X75.015 Y97.156 E10.84335
G1 X75.115 Y96.386 E10.89730
G1 X75.265 Y95.476 E10.96139
G1 X75.585 Y93.976 E11.06795
G1 X75.805 Y93.146 E11.12762
G1 X76.215 Y91.836 E11.22299
G1 X76.505 Y91.036 E11.28212
G1 X77.075 Y89.676 E11.38458
G1 X77.435 Y88.916 E11.44301
G1 X77.955 Y87.916 E11.52132
G1 X78.385 Y87.156 E11.58199
G1 X79.095 Y86.016 E11.67531
G1 X79.765 Y85.066 E11.75608
G1 X80.235 Y84.446 E11.81014
G1 X81.185 Y83.306 E11.91325
G1 X81.709 Y82.738 E11.96694
G1 F1800.000 E10.96694
G92 E0
G1 X96.960 Y97.040 F7800.000
G1 E1.00000 F1800.000
G1 X97.235 Y96.781 E1.02623 F540.000
G1 X97.489 Y96.579 E1.04879
G1 X97.945 Y96.288 E1.08634
G1 X98.239 Y96.139 E1.10930
G1 X98.547 Y96.013 E1.13241
G1 X98.923 Y95.897 E1.15977
G1 X99.478 Y95.789 E1.19904
G1 X99.822 Y95.761 E1.22298
G1 X100.160 Y95.760 E1.24647
G1 X100.751 Y95.824 E1.28778
G1 X101.078 Y95.896 E1.31105
G1 X101.620 Y96.078 E1.35075
G1 X101.916 Y96.214 E1.37340
G1 X102.417 Y96.512 E1.41394
G1 X102.689 Y96.718 E1.43762
G1 X102.941 Y96.941 E1.46100
G1 X103.315 Y97.352 E1.49965
G1 X103.514 Y97.622 E1.52294
G1 X103.691 Y97.906 E1.54616
G1 X103.868 Y98.258 E1.57356
G1 X104.065 Y98.779 E1.61229
G1 X104.147 Y99.095 E1.63495
G1 X104.205 Y99.426 E1.65827
G1 X104.245 Y100.004 E1.69853
G1 X104.229 Y100.365 E1.72369
G1 X104.178 Y100.747 E1.75041
G1 X104.091 Y101.131 E1.77781
G1 X103.941 Y101.574 E1.81027
G1 X103.772 Y101.945 E1.83862
G1 X103.566 Y102.301 E1.86721
G1 X103.326 Y102.636 E1.89579
G1 X103.047 Y102.954 E1.92520
G1 X102.684 Y103.288 E1.95949
G1 X102.365 Y103.524 E1.98707
G1 X102.007 Y103.739 E2.01608
G1 X101.636 Y103.915 E2.04459
G1 X101.204 Y104.069 E2.07652
G1 X100.835 Y104.161 E2.10292
G1 X100.454 Y104.219 E2.12969
G1 X100.085 Y104.242 E2.15534
G1 X99.647 Y104.229 E2.18580
G1 X99.289 Y104.184 E2.21087
G1 X98.904 Y104.100 E2.23824
G1 X98.455 Y103.952 E2.27108
G1 X98.083 Y103.786 E2.29944
G1 X97.724 Y103.582 E2.32808
G1 X97.384 Y103.342 E2.35701
G1 X97.072 Y103.072 E2.38570
G1 X96.738 Y102.715 E2.41966
G1 X96.483 Y102.375 E2.44921
G1 X96.278 Y102.039 E2.47653
G1 X96.097 Y101.666 E2.50531
G1 X95.940 Y101.235 E2.53723
G1 X95.843 Y100.855 E2.56445
G1 X95.784 Y100.487 E2.59035
G1 X95.758 Y100.121 E2.61587
G1 X95.770 Y99.650 E2.64859
G1 X95.820 Y99.267 E2.67546
G1 X95.912 Y98.859 E2.70449
G1 X96.045 Y98.463 E2.73355
G1 X96.242 Y98.028 E2.76670
G1 X96.447 Y97.679 E2.79484
G1 X96.691 Y97.344 E2.82359
G1 X96.904 Y97.102 E2.84602
G1 X97.368 Y97.420 F7800.000
G1 X97.810 Y97.035 E2.88673 F540.000
G1 X98.221 Y96.772 E2.92063
G1 X98.475 Y96.644 E2.94045
G1 X98.741 Y96.535 E2.96040
G1 X99.053 Y96.439 E2.98311
G1 X99.551 Y96.341 E3.01832
G1 X99.842 Y96.317 E3.03862
G1 X100.131 Y96.317 E3.05868
G1 X100.655 Y96.373 E3.09531
G1 X100.930 Y96.433 E3.11492
G1 X101.410 Y96.594 E3.15003
G1 X101.868 Y96.822 E3.18558
G1 X102.102 Y96.972 E3.20492
G1 X102.547 Y97.335 E3.24481
G1 X102.885 Y97.706 E3.27968
G1 X103.056 Y97.939 E3.29979
G1 X103.209 Y98.185 E3.31987
G1 X103.356 Y98.476 E3.34259
G1 X103.533 Y98.944 E3.37733
G1 X103.603 Y99.217 E3.39688
G1 X103.652 Y99.495 E3.41650
G1 X103.687 Y100.001 E3.45178
G1 X103.673 Y100.323 E3.47417
G1 X103.628 Y100.655 E3.49745
G1 X103.551 Y100.990 E3.52134
G1 X103.426 Y101.362 E3.54857
G1 X103.278 Y101.688 E3.57344
G1 X103.097 Y102.001 E3.59859
G1 X102.884 Y102.296 E3.62388
G1 X102.640 Y102.573 E3.64954
G1 X102.336 Y102.852 E3.67815
G1 X102.048 Y103.065 E3.70308
G1 X101.736 Y103.252 E3.72837
G1 X101.412 Y103.405 E3.75326
G1 X101.046 Y103.535 E3.78022
G1 X100.718 Y103.616 E3.80371
G1 X100.386 Y103.666 E3.82700
G1 X100.031 Y103.686 E3.85175
G1 X99.701 Y103.674 E3.87467
G1 X99.377 Y103.634 E3.89735
G1 X99.042 Y103.560 E3.92123
G1 X98.667 Y103.437 E3.94861
G1 X98.340 Y103.292 E3.97349
G1 X98.025 Y103.113 E3.99865
G1 X97.726 Y102.902 E4.02407
G1 X97.450 Y102.662 E4.04947
G1 X97.170 Y102.363 E4.07796
G1 X96.948 Y102.068 E4.10359
G1 X96.763 Y101.765 E4.12828
G1 X96.607 Y101.441 E4.15326
G1 X96.474 Y101.077 E4.18021
G1 X96.389 Y100.744 E4.20403
G1 X96.337 Y100.417 E4.22705
G1 X96.314 Y100.097 E4.24932
G1 X96.325 Y99.705 E4.27662
G1 X96.370 Y99.356 E4.30105
G1 X96.451 Y99.001 E4.32639
G1 X96.568 Y98.654 E4.35180
G1 X96.736 Y98.287 E4.37985
G1 X96.918 Y97.977 E4.40487
G1 X97.132 Y97.685 E4.42995
G1 X97.312 Y97.482 E4.44882
G1 X97.238 Y96.878 F7800.000
G1 F1800.000 E3.44882
G92 E0
G1 X100.776 Y91.308 F7800.000
G1 E1.00000 F1800.000
G1 X101.533 Y91.409 E1.05310 F540.000
G1 X102.283 Y91.578 E1.10652
G1 X102.982 Y91.799 E1.15741
G1 X103.350 Y91.942 E1.18487
G1 X103.995 Y92.242 E1.23426
G1 X104.328 Y92.422 E1.26058
G1 X104.938 Y92.805 E1.31063
G1 X105.543 Y93.260 E1.36321
G1 X106.122 Y93.781 E1.41732
G1 X106.648 Y94.347 E1.47108
G1 X107.123 Y94.958 E1.52478
G1 X107.350 Y95.295 E1.55304
G1 X107.728 Y95.946 E1.60534
G1 X108.061 Y96.658 E1.66000
G1 X108.328 Y97.391 E1.71415
G1 X108.524 Y98.129 E1.76724
G1 X108.656 Y98.887 E1.82067
G1 X108.719 Y99.617 E1.87158
G1 X108.727 Y100.007 E1.89866
G1 X108.705 Y100.629 E1.94192
G1 X108.619 Y101.371 E1.99384
G1 X108.548 Y101.761 E2.02136
G1 X108.375 Y102.452 E2.07088
G1 X108.128 Y103.176 E2.12401
G1 X107.819 Y103.877 E2.17725
G1 X107.435 Y104.568 E2.23220
G1 X107.010 Y105.198 E2.28499
G1 X106.767 Y105.510 E2.31243
G1 X106.235 Y106.106 E2.36800
G1 X105.652 Y106.649 E2.42337
G1 X105.028 Y107.133 E2.47818
G1 X104.358 Y107.560 E2.53340
G1 X103.661 Y107.921 E2.58793
G1 X103.301 Y108.078 E2.61521
G1 X102.597 Y108.331 E2.66724
G1 X101.852 Y108.528 E2.72077
G1 X101.112 Y108.656 E2.77291
G1 X100.370 Y108.719 E2.82464
G1 X99.743 Y108.723 E2.86825
G1 X99.363 Y108.704 E2.89471
G1 X98.601 Y108.614 E2.94800
G1 X97.909 Y108.472 E2.99709
G1 X97.550 Y108.376 E3.02289
G1 X96.824 Y108.128 E3.07617
G1 X96.122 Y107.818 E3.12954
G1 X95.429 Y107.434 E3.18454
G1 X94.800 Y107.008 E3.23736
G1 X94.488 Y106.765 E3.26484
G1 X93.884 Y106.225 E3.32109
G1 X93.348 Y105.649 E3.37579
G1 X92.866 Y105.026 E3.43052
G1 X92.438 Y104.356 E3.48574
G1 X92.077 Y103.659 E3.54030
G1 X91.791 Y102.960 E3.59276
G1 X91.664 Y102.584 E3.62032
G1 X91.470 Y101.842 E3.67366
G1 X91.399 Y101.478 E3.69942
G1 X91.307 Y100.770 E3.74901
G1 X91.273 Y100.005 E3.80223
G1 X91.304 Y99.258 E3.85415
G1 X91.403 Y98.496 E3.90760
G1 X91.562 Y97.773 E3.95897
G1 X91.668 Y97.406 E3.98556
G1 X91.935 Y96.665 E4.04027
G1 X92.258 Y95.973 E4.09332
G1 X92.644 Y95.305 E4.14695
G1 X93.087 Y94.673 E4.20057
G1 X93.575 Y94.095 E4.25311
G1 X93.838 Y93.821 E4.27949
G1 X94.361 Y93.340 E4.32886
G1 X94.933 Y92.895 E4.37924
G1 X95.242 Y92.685 E4.40520
G1 X95.893 Y92.300 E4.45777
G1 X96.597 Y91.965 E4.51191
G1 X97.322 Y91.695 E4.56566
G1 X98.067 Y91.490 E4.61934
G1 X98.850 Y91.350 E4.67466
G1 X99.624 Y91.282 E4.72859
G1 X100.010 Y91.274 E4.75545
G1 X100.692 Y91.303 E4.80291
G1 X100.773 Y90.750 F7800.000
G1 X101.631 Y90.861 E4.86305 F378.000
G1 X102.437 Y91.042 E4.92044
G1 X103.175 Y91.276 E4.97426
G1 X103.571 Y91.431 E5.00376
G1 X104.250 Y91.746 E5.05577
G1 X104.611 Y91.943 E5.08434
G1 X105.246 Y92.341 E5.13644
G1 X105.890 Y92.824 E5.19236
G1 X106.513 Y93.384 E5.25052
G1 X107.073 Y93.986 E5.30770
G1 X107.579 Y94.639 E5.36507
G1 X108.038 Y95.356 E5.42426
G1 X108.237 Y95.719 E5.45299
G1 X108.567 Y96.425 E5.50714
G1 X108.858 Y97.221 E5.56604
G1 X109.068 Y98.010 E5.62277
G1 X109.209 Y98.824 E5.68017
G1 X109.276 Y99.596 E5.73400
G1 X109.284 Y100.015 E5.76317
G1 X109.260 Y100.669 E5.80861
G1 X109.168 Y101.462 E5.86407
G1 X109.091 Y101.881 E5.89367
G1 X108.912 Y102.601 E5.94523
G1 X108.647 Y103.379 E6.00233
G1 X108.318 Y104.125 E6.05898
G1 X107.905 Y104.867 E6.11801
G1 X107.462 Y105.523 E6.17297
G1 X107.205 Y105.855 E6.20216
G1 X106.630 Y106.498 E6.26212
G1 X106.013 Y107.074 E6.32078
G1 X105.349 Y107.588 E6.37909
G1 X104.629 Y108.047 E6.43841
G1 X103.887 Y108.431 E6.49644
G1 X103.504 Y108.597 E6.52546
G1 X102.770 Y108.861 E6.57965
G1 X101.970 Y109.073 E6.63717
G1 X101.175 Y109.209 E6.69320
G1 X100.385 Y109.276 E6.74831
G1 X99.734 Y109.280 E6.79352
G1 X99.322 Y109.259 E6.82222
G1 X98.504 Y109.162 E6.87946
G1 X97.783 Y109.015 E6.93057
G1 X97.402 Y108.913 E6.95802
G1 X96.622 Y108.647 E7.01526
G1 X95.874 Y108.317 E7.07204
G1 X95.130 Y107.904 E7.13114
G1 X94.475 Y107.460 E7.18615
G1 X94.143 Y107.203 E7.21536
G1 X93.496 Y106.625 E7.27558
G1 X92.924 Y106.010 E7.33399
G1 X92.410 Y105.347 E7.39224
G1 X91.951 Y104.627 E7.45157
G1 X91.576 Y103.903 E7.50821
G1 X91.419 Y103.543 E7.53551
G1 X91.132 Y102.749 E7.59415
G1 X90.928 Y101.972 E7.64997
G1 X90.791 Y101.180 E7.70587
G1 X90.724 Y100.383 E7.76144
G1 X90.723 Y99.630 E7.81370
G1 X90.748 Y99.232 E7.84141
G1 X90.852 Y98.412 E7.89885
G1 X91.032 Y97.598 E7.95682
G1 X91.263 Y96.859 E8.01058
G1 X91.419 Y96.456 E8.04066
G1 X91.763 Y95.716 E8.09734
G1 X92.172 Y95.008 E8.15416
G1 X92.651 Y94.326 E8.21203
G1 X93.170 Y93.712 E8.26791
G1 X93.450 Y93.421 E8.29595
G1 X94.000 Y92.915 E8.34790
G1 X94.637 Y92.422 E8.40385
G1 X95.272 Y92.011 E8.45641
G1 X95.624 Y91.813 E8.48448
G1 X96.379 Y91.452 E8.54265
G1 X97.151 Y91.164 E8.59983
G1 X97.947 Y90.946 E8.65718
G1 X98.785 Y90.796 E8.71638
G1 X99.608 Y90.725 E8.77375
G1 X100.019 Y90.717 E8.80232
G1 X100.690 Y90.744 E8.84895
G1 X101.002 Y91.258 F7800.000
G1 F1800.000 E7.84895
G92 E0
G1 X103.321 Y92.363 F7800.000
G1 E1.00000 F1800.000
G1 X107.643 Y96.685 E1.43754 F1080.000
G1 X108.059 Y97.913 F7800.000
G1 X102.086 Y91.940 E2.04216 F1080.000
G1 X101.081 Y91.747 E2.11546
G1 X108.255 Y98.921 E2.84180
G1 X108.324 Y99.802 E2.90501
G1 X100.199 Y91.677 E3.72754
G1 X99.405 Y91.694 E3.78443
G1 X108.311 Y100.601 E4.68612
G1 F1800.000 E3.68612
G92 E0
G1 X106.031 Y94.262 F7800.000
G1 E1.00000 F1800.000
G1 X105.702 Y93.933 E1.03334 F1080.000
G1 F1800.000 E0.03334
G92 E0
G1 X101.995 Y108.083 F7800.000
G1 E1.00000 F1800.000
G1 X98.167 Y104.255 E1.38751 F1080.000
G1 X99.307 Y104.583 E1.47243
G1 X102.626 Y107.902 E1.80839
G1 X103.219 Y107.683 E1.85365
G1 X100.166 Y104.630 E2.16273
G1 X100.897 Y104.550 E2.21539
G1 X103.772 Y107.425 E2.50647
G1 X104.293 Y107.134 E2.54917
G1 X101.530 Y104.371 E2.82887
G1 X102.101 Y104.130 E2.87322
G1 X104.789 Y106.819 E3.14536
G1 X105.247 Y106.465 E3.18678
G1 X102.613 Y103.830 E3.45345
G1 X103.067 Y103.472 E3.49482
G1 X105.679 Y106.085 E3.75934
G1 X106.087 Y105.681 E3.80042
G1 X103.471 Y103.065 E4.06523
G1 X103.828 Y102.611 E4.10661
G1 X106.468 Y105.251 E4.37386
G1 X106.814 Y104.785 E4.41540
G1 X104.133 Y102.104 E4.68686
G1 X104.372 Y101.531 E4.73129
G1 X107.132 Y104.292 E5.01080
G1 X107.427 Y103.775 E5.05340
G1 X104.548 Y100.896 E5.34486
G1 X104.632 Y100.168 E5.39732
G1 X107.680 Y103.216 E5.70596
G1 X107.900 Y102.625 E5.75114
G1 X104.576 Y99.300 E6.08768
G1 X104.257 Y98.170 E6.17176
G1 X108.083 Y101.995 E6.55905
G1 X108.219 Y101.320 E6.60836
G1 X98.680 Y91.781 E7.57412
G1 X98.004 Y91.916 E7.62348
G1 X101.839 Y95.752 E8.01179
G1 X100.698 Y95.422 E8.09686
G1 X97.372 Y92.096 E8.43352
G1 X96.780 Y92.316 E8.47871
G1 X99.833 Y95.369 E8.78773
G1 X99.104 Y95.452 E8.84025
G1 X96.229 Y92.576 E9.13135
G1 X95.708 Y92.867 E9.17405
G1 X98.466 Y95.625 E9.45329
G1 X97.900 Y95.871 E9.49746
G1 X95.216 Y93.187 E9.76920
G1 X94.752 Y93.535 E9.81071
G1 X97.389 Y96.171 E10.07763
G1 X96.937 Y96.531 E10.11897
G1 X94.318 Y93.912 E10.38414
G1 X93.912 Y94.318 E10.42523
G1 X96.527 Y96.933 E10.69000
G1 X96.172 Y97.389 E10.73139
G1 X93.535 Y94.753 E10.99831
G1 X93.187 Y95.216 E11.03981
G1 X95.868 Y97.898 E11.31125
G1 X95.629 Y98.470 E11.35566
G1 X92.866 Y95.707 E11.63533
G1 X92.574 Y96.227 E11.67799
G1 X95.452 Y99.105 E11.96939
G1 X95.370 Y99.834 E12.02194
G1 X92.316 Y96.780 E12.33110
G1 X92.098 Y97.374 E12.37634
G1 X95.418 Y100.694 E12.71250
G1 X95.735 Y101.823 E12.79644
G1 X91.917 Y98.005 E13.18297
G1 X91.780 Y98.679 E13.23225
G1 X101.321 Y108.220 E14.19813
G1 X100.596 Y108.307 E14.25037
G1 X91.695 Y99.406 E15.15154
G1 X91.675 Y100.198 E15.20828
G1 X99.800 Y108.323 E16.03080
G1 X98.924 Y108.259 E16.09366
G1 X91.744 Y101.079 E16.82057
G1 X91.941 Y102.087 E16.89413
G1 X97.914 Y108.060 E17.49876
G1 X96.673 Y107.630 F7800.000
G1 X92.366 Y103.323 E17.93479 F1080.000
G1 F1800.000 E16.93479
G92 E0
G1 X93.978 Y105.748 F7800.000
G1 E1.00000 F1800.000
G1 X94.297 Y106.067 E1.03230 F1080.000
M106 S255
M104 S220 ; set temperature
M140 S80 ; set bed temperature
G1 F1800.000 E0.03230
G92 E0
G1 Z0.500 F7800.000
G1 X97.260 Y102.895 F7800.000
G1 E1.00000 F1800.000
G1 X96.928 Y102.540 E1.01617 F675.514
G1 X96.695 Y102.230 E1.02905
G1 X96.506 Y101.920 E1.04116
G1 X96.340 Y101.580 E1.05371
G1 X96.182 Y101.150 E1.06896
G1 X96.094 Y100.801 E1.08093
G1 X96.039 Y100.458 E1.09249
G1 X96.015 Y100.126 E1.10357
G1 X96.027 Y99.666 E1.11887
G1 X96.073 Y99.311 E1.13075
G1 X96.156 Y98.941 E1.14337
G1 X96.275 Y98.581 E1.15600
G1 X96.469 Y98.149 E1.17174
G1 X96.656 Y97.829 E1.18405
G1 X96.876 Y97.525 E1.19655
G1 X97.119 Y97.246 E1.20884
G1 X97.413 Y96.967 E1.22233
G1 X97.662 Y96.772 E1.23287
G1 X98.047 Y96.525 E1.24807
G1 X98.336 Y96.378 E1.25884
G1 X98.636 Y96.254 E1.26966
G1 X99.040 Y96.133 E1.28366
G1 X99.507 Y96.044 E1.29948
G1 X99.840 Y96.017 E1.31059
G1 X100.168 Y96.018 E1.32151
G1 X100.711 Y96.078 E1.33966
G1 X101.026 Y96.148 E1.35042
G1 X101.324 Y96.241 E1.36079
G1 X101.730 Y96.409 E1.37541
G1 X102.006 Y96.556 E1.38581
G1 X102.348 Y96.780 E1.39940
G1 X102.710 Y97.076 E1.41496
G1 X102.939 Y97.307 E1.42578
G1 X103.206 Y97.633 E1.43978
G1 X103.466 Y98.030 E1.45558
G1 X103.619 Y98.328 E1.46672
G1 X103.817 Y98.847 E1.48519
G1 X103.897 Y99.155 E1.49578
G1 X103.952 Y99.474 E1.50655
G1 X103.988 Y100.003 E1.52416
G1 X103.972 Y100.342 E1.53547
G1 X103.926 Y100.694 E1.54726
G1 X103.847 Y101.047 E1.55929
G1 X103.698 Y101.490 E1.57485
G1 X103.541 Y101.831 E1.58733
G1 X103.352 Y102.158 E1.59989
G1 X103.133 Y102.465 E1.61244
G1 X102.880 Y102.757 E1.62529
G1 X102.520 Y103.089 E1.64157
G1 X102.225 Y103.308 E1.65379
G1 X101.899 Y103.505 E1.66647
G1 X101.561 Y103.668 E1.67895
G1 X101.129 Y103.823 E1.69420
G1 X100.790 Y103.908 E1.70584
G1 X100.440 Y103.962 E1.71763
G1 X100.102 Y103.985 E1.72888
G1 X99.664 Y103.972 E1.74346
G1 X99.330 Y103.930 E1.75465
G1 X98.976 Y103.853 E1.76669
G1 X98.623 Y103.741 E1.77902
G1 X98.186 Y103.550 E1.79488
G1 X97.858 Y103.362 E1.80744
G1 X97.547 Y103.143 E1.82012
G1 X97.305 Y102.935 E1.83073
G1 X97.531 Y102.601 F7800.000
G1 X97.238 Y102.287 E1.84502 F675.514
G1 X97.029 Y102.010 E1.85655
G1 X96.854 Y101.723 E1.86776
G1 X96.706 Y101.418 E1.87901
G1 X96.566 Y101.036 E1.89255
G1 X96.486 Y100.721 E1.90335
G1 X96.436 Y100.408 E1.91391
G1 X96.415 Y100.109 E1.92388
G1 X96.425 Y99.705 E1.93732
G1 X96.468 Y99.376 E1.94836
G1 X96.543 Y99.043 E1.95971
G1 X96.651 Y98.718 E1.97109
G1 X96.823 Y98.335 E1.98508
G1 X96.994 Y98.043 E1.99632
G1 X97.192 Y97.769 E2.00755
G1 X97.411 Y97.519 E2.01861
G1 X97.671 Y97.274 E2.03049
G1 X97.892 Y97.099 E2.03988
G1 X98.246 Y96.873 E2.05383
G1 X98.505 Y96.740 E2.06352
G1 X98.776 Y96.629 E2.07324
G1 X99.133 Y96.522 E2.08565
G1 X99.559 Y96.441 E2.10008
G1 X99.854 Y96.417 E2.10993
G1 X100.147 Y96.417 E2.11968
G1 X100.642 Y96.472 E2.13622
G1 X101.186 Y96.616 E2.15496
G1 X101.559 Y96.771 E2.16837
G1 X101.807 Y96.903 E2.17772
G1 X102.110 Y97.102 E2.18977
G1 X102.440 Y97.372 E2.20395
G1 X102.646 Y97.579 E2.21369
G1 X102.882 Y97.868 E2.22609
G1 X103.120 Y98.231 E2.24051
G1 X103.255 Y98.495 E2.25038
G1 X103.434 Y98.965 E2.26713
G1 X103.506 Y99.243 E2.27666
G1 X103.555 Y99.524 E2.28616
G1 X103.587 Y100.001 E2.30206
G1 X103.573 Y100.312 E2.31241
G1 X103.532 Y100.628 E2.32302
G1 X103.460 Y100.946 E2.33385
G1 X103.328 Y101.338 E2.34761
G1 X103.187 Y101.646 E2.35890
G1 X103.015 Y101.942 E2.37026
G1 X102.816 Y102.222 E2.38169
G1 X102.587 Y102.484 E2.39325
G1 X102.271 Y102.776 E2.40757
G1 X101.998 Y102.979 E2.41889
G1 X101.704 Y103.156 E2.43029
G1 X101.400 Y103.302 E2.44152
G1 X101.016 Y103.440 E2.45507
G1 X100.706 Y103.516 E2.46570
G1 X100.391 Y103.565 E2.47629
G1 X100.087 Y103.585 E2.48643
G1 X99.702 Y103.574 E2.49923
G1 X99.393 Y103.535 E2.50960
G1 X99.075 Y103.465 E2.52044
G1 X98.757 Y103.364 E2.53154
G1 X98.371 Y103.195 E2.54555
G1 X98.074 Y103.025 E2.55692
G1 X97.792 Y102.827 E2.56839
G1 X97.576 Y102.641 E2.57787
G1 X97.145 Y102.706 F7800.000
G1 F1800.000 E1.57787
G92 E0
G1 X93.082 Y94.269 F7800.000
G1 E1.00000 F1800.000
G1 X93.648 Y93.647 E1.02796 F675.514
G1 X94.239 Y93.107 E1.05461
G1 X94.746 Y92.713 E1.07594
G1 X95.062 Y92.495 E1.08872
G1 X95.784 Y92.067 E1.11663
G1 X96.553 Y91.704 E1.14493
G1 X97.184 Y91.470 E1.16730
G1 X97.566 Y91.353 E1.18060
G1 X98.411 Y91.158 E1.20943
G1 X99.201 Y91.052 E1.23594
G1 X99.997 Y91.017 E1.26245
G1 X100.855 Y91.058 E1.29103
G1 X101.249 Y91.104 E1.30423
G1 X101.902 Y91.221 E1.32629
G1 X102.707 Y91.434 E1.35397
G1 X103.490 Y91.723 E1.38174
G1 X104.060 Y91.987 E1.40264
G1 X104.393 Y92.164 E1.41517
G1 X105.094 Y92.600 E1.44262
G1 X105.716 Y93.069 E1.46855
G1 X106.345 Y93.641 E1.49683
G1 X106.804 Y94.134 E1.51921
G1 X107.058 Y94.443 E1.53250
G1 X107.561 Y95.148 E1.56134
G1 X107.962 Y95.838 E1.58787
G1 X108.299 Y96.560 E1.61436
G1 X108.589 Y97.369 E1.64294
G1 X108.788 Y98.134 E1.66923
G1 X108.861 Y98.518 E1.68224
G1 X108.945 Y99.164 E1.70390
G1 X108.985 Y100.004 E1.73189
G1 X108.931 Y100.971 E1.76409
G1 X108.801 Y101.804 E1.79213
G1 X108.619 Y102.536 E1.81724
G1 X108.345 Y103.326 E1.84504
G1 X108.075 Y103.936 E1.86722
G1 X107.893 Y104.290 E1.88047
G1 X107.443 Y105.031 E1.90930
G1 X106.958 Y105.683 E1.93630
G1 X106.417 Y106.287 E1.96329
G1 X105.770 Y106.886 E1.99262
G1 X105.452 Y107.140 E2.00614
G1 X104.893 Y107.534 E2.02888
G1 X104.161 Y107.962 E2.05712
G1 X103.411 Y108.311 E2.08462
G1 X102.602 Y108.598 E2.11317
G1 X101.848 Y108.791 E2.13906
G1 X101.472 Y108.862 E2.15177
G1 X100.839 Y108.944 E2.17300
G1 X100.038 Y108.983 E2.19968
G1 X99.403 Y108.964 E2.22082
G1 X99.018 Y108.930 E2.23367
G1 X98.204 Y108.803 E2.26107
G1 X97.466 Y108.619 E2.28638
G1 X96.674 Y108.345 E2.31424
G1 X96.063 Y108.075 E2.33646
G1 X95.709 Y107.892 E2.34972
G1 X94.967 Y107.441 E2.37860
G1 X94.315 Y106.956 E2.40562
G1 X93.705 Y106.410 E2.43285
G1 X93.112 Y105.767 E2.46196
G1 X92.858 Y105.450 E2.47546
G1 X92.465 Y104.891 E2.49818
G1 X92.058 Y104.199 E2.52488
G1 X91.688 Y103.409 E2.55391
G1 X91.419 Y102.661 E2.58035
G1 X91.209 Y101.850 E2.60820
G1 X91.138 Y101.476 E2.62086
G1 X91.055 Y100.840 E2.64221
G1 X91.015 Y100.005 E2.66999
G1 X91.054 Y99.176 E2.69759
G1 X91.138 Y98.524 E2.71948
G1 X91.211 Y98.139 E2.73251
G1 X91.426 Y97.316 E2.76080
G1 X91.697 Y96.568 E2.78724
G1 X92.058 Y95.800 E2.81547
G1 X92.458 Y95.119 E2.84175
G1 X92.679 Y94.793 E2.85485
G1 X93.044 Y94.316 E2.87483
G1 X92.772 Y94.017 F7800.000
G1 X93.365 Y93.364 E2.90415 F600.000
G1 X93.986 Y92.798 E2.93211
G1 X94.509 Y92.391 E2.95414
G1 X94.839 Y92.163 E2.96750
G1 X95.596 Y91.714 E2.99677
G1 X96.404 Y91.333 E3.02646
G1 X97.055 Y91.091 E3.04957
G1 X97.454 Y90.969 E3.06346
G1 X98.338 Y90.765 E3.09362
G1 X99.165 Y90.654 E3.12140
G1 X99.997 Y90.616 E3.14909
G1 X100.897 Y90.660 E3.17906
G1 X101.309 Y90.709 E3.19285
G1 X101.983 Y90.829 E3.21564
G1 X102.828 Y91.053 E3.24468
G1 X103.649 Y91.355 E3.27380
G1 X104.238 Y91.628 E3.29539
G1 X104.585 Y91.814 E3.30849
G1 X105.321 Y92.271 E3.33728
G1 X105.970 Y92.761 E3.36435
G1 X106.631 Y93.361 E3.39403
G1 X107.104 Y93.870 E3.41714
G1 X107.370 Y94.192 E3.43103
G1 X107.896 Y94.930 E3.46120
G1 X108.316 Y95.653 E3.48898
G1 X108.668 Y96.407 E3.51666
G1 X108.973 Y97.255 E3.54664
G1 X109.180 Y98.054 E3.57411
G1 X109.256 Y98.455 E3.58769
G1 X109.343 Y99.123 E3.61007
G1 X109.385 Y100.002 E3.63933
G1 X109.364 Y100.612 E3.65965
G1 X109.329 Y101.010 E3.67295
G1 X109.194 Y101.882 E3.70228
G1 X109.002 Y102.649 E3.72859
G1 X108.715 Y103.478 E3.75776
G1 X108.437 Y104.108 E3.78066
G1 X108.246 Y104.478 E3.79450
G1 X107.774 Y105.255 E3.82475
G1 X107.268 Y105.935 E3.85295
G1 X106.701 Y106.569 E3.88122
G1 X106.023 Y107.195 E3.91191
G1 X105.692 Y107.460 E3.92603
G1 X105.115 Y107.867 E3.94952
G1 X104.343 Y108.318 E3.97924
G1 X103.563 Y108.681 E4.00787
G1 X102.714 Y108.982 E4.03782
G1 X101.927 Y109.184 E4.06486
G1 X101.534 Y109.257 E4.07813
G1 X100.880 Y109.342 E4.10007
G1 X100.036 Y109.383 E4.12818
G1 X99.380 Y109.363 E4.15001
G1 X98.978 Y109.328 E4.16343
G1 X98.124 Y109.195 E4.19218
G1 X97.353 Y109.003 E4.21861
G1 X96.522 Y108.715 E4.24785
G1 X95.891 Y108.436 E4.27079
G1 X95.521 Y108.245 E4.28465
G1 X94.742 Y107.773 E4.31495
G1 X94.062 Y107.266 E4.34317
G1 X93.427 Y106.697 E4.37153
G1 X92.803 Y106.021 E4.40214
G1 X92.538 Y105.689 E4.41625
G1 X92.131 Y105.112 E4.43971
G1 X91.706 Y104.389 E4.46761
G1 X91.318 Y103.561 E4.49806
G1 X91.037 Y102.779 E4.52568
G1 X90.817 Y101.929 E4.55488
G1 X90.743 Y101.538 E4.56811
G1 X90.657 Y100.881 E4.59017
G1 X90.615 Y100.005 E4.61931
G1 X90.656 Y99.136 E4.64826
G1 X90.743 Y98.462 E4.67087
G1 X90.819 Y98.059 E4.68449
G1 X91.045 Y97.196 E4.71416
G1 X91.327 Y96.418 E4.74170
G1 X91.707 Y95.610 E4.77140
G1 X92.124 Y94.898 E4.79884
G1 X92.356 Y94.558 E4.81253
G1 X92.734 Y94.063 E4.83324
G1 X93.165 Y94.091 F7800.000
G1 X93.740 Y94.038 F7800.000
G1 X94.045 Y93.733 E4.85621 F1351.028
G1 F1800.000 E3.85621
G92 E0
G1 X92.017 Y96.666 F7800.000
G1 E1.00000 F1800.000
G1 X96.665 Y92.019 E1.34985 F1351.028
G1 X98.004 Y91.585 E1.42477
G1 X91.590 Y97.998 E1.90754
G1 X91.399 Y99.095 E1.96682
G1 X99.096 Y91.398 E2.54627
G1 X100.049 Y91.350 E2.59704
G1 X91.349 Y100.050 E3.25191
G1 X91.398 Y100.906 E3.29757
G1 X100.904 Y91.401 E4.01309
G1 F1800.000 E3.01309
G92 E0
G1 X99.270 Y95.750 F7800.000
G1 E1.00000 F1800.000
G1 X103.092 Y91.928 E1.28770 F1351.028
G1 X103.725 Y92.201 E1.32437
G1 X100.235 Y95.691 E1.58710
G1 X101.025 Y95.806 E1.62959
G1 X104.320 Y92.511 E1.87768
G1 X104.879 Y92.857 E1.91268
G1 X101.699 Y96.038 E2.15208
G1 X102.294 Y96.348 E2.18780
G1 X105.397 Y93.245 E2.42140
G1 X105.882 Y93.665 E2.45556
G1 X102.814 Y96.733 E2.68653
G1 X103.269 Y97.184 E2.72060
G1 X106.334 Y94.118 E2.95134
G1 X106.753 Y94.604 E2.98551
G1 X103.654 Y97.704 E3.21886
G1 X103.965 Y98.298 E3.25456
G1 X107.140 Y95.123 E3.49355
G1 X107.492 Y95.676 E3.52845
G1 X104.190 Y98.978 E3.77702
G1 X104.310 Y99.764 E3.81931
G1 X107.805 Y96.269 E4.08244
G1 X108.072 Y96.906 E4.11925
G1 X104.257 Y100.722 E4.40647
G1 X103.748 Y102.137 F7800.000
G1 X108.301 Y97.583 E4.74923 F1351.028
G1 F1800.000 E3.74923
G92 E0
G1 X106.301 Y105.921 F7800.000
G1 E1.00000 F1800.000
G1 X105.973 Y106.248 E1.02466 F1351.028
G1 F1800.000 E0.02466
G92 E0
G1 X103.332 Y107.984 F7800.000
G1 E1.00000 F1800.000
G1 X107.977 Y103.339 E1.34966 F1351.028
G1 X108.411 Y102.000 E1.42458
G1 X101.998 Y108.413 E1.90732
G1 X100.909 Y108.597 E1.96613
G1 X108.603 Y100.902 E2.54536
G1 X108.650 Y99.950 E2.59611
G1 X99.953 Y108.647 E3.25080
G1 X99.091 Y108.603 E3.29673
G1 X108.602 Y99.093 E4.01262
G1 X108.483 Y98.306 E4.05498
G1 X98.306 Y108.483 E4.82108
G1 X97.579 Y108.306 E4.86094
G1 X102.134 Y103.751 E5.20383
G1 X100.723 Y104.256 F7800.000
G1 X96.902 Y108.076 E5.49145 F1351.028
G1 X96.273 Y107.800 E5.52803
G1 X99.765 Y104.309 E5.79087
G1 X98.978 Y104.190 E5.83322
G1 X95.678 Y107.490 E6.08160
G1 X95.122 Y107.141 E6.11656
G1 X98.299 Y103.964 E6.35565
G1 X97.703 Y103.655 E6.39139
G1 X94.602 Y106.756 E6.62482
G1 X94.118 Y106.335 E6.65897
G1 X97.186 Y103.266 E6.88997
G1 X96.731 Y102.816 E6.92404
G1 X93.667 Y105.880 E7.15466
G1 X93.242 Y105.399 E7.18880
G1 X96.347 Y102.295 E7.42248
G1 X96.032 Y101.704 E7.45812
G1 X92.860 Y104.877 E7.69694
G1 X92.514 Y104.317 E7.73194
G1 X95.809 Y101.023 E7.97997
G1 X95.693 Y100.232 E8.02247
G1 X92.200 Y103.726 E8.28542
G1 X91.927 Y103.094 E8.32206
G1 X95.743 Y99.277 E8.60934
G1 X96.253 Y97.862 F7800.000
G1 X91.698 Y102.417 E8.95222 F1351.028
G1 X91.517 Y101.693 E8.99194
G1 X101.693 Y91.517 E9.75795
G1 X102.418 Y91.697 E9.79773
G1 X97.863 Y96.252 E10.14057
G1 F1800.000 E9.14057
G92 E0
G1 Z0.700 F7800.000
G1 X98.028 Y96.536 F7800.000
G1 E1.00000 F1800.000
G1 X98.326 Y96.383 E1.01115 F675.437
G1 X98.759 Y96.213 E1.02664
G1 X99.169 Y96.102 E1.04077
G1 X99.503 Y96.045 E1.05203
G1 X99.847 Y96.017 E1.06350
G1 X100.186 Y96.018 E1.07478
G1 X100.714 Y96.078 E1.09246
G1 X101.039 Y96.152 E1.10355
G1 X101.525 Y96.317 E1.12059
G1 X101.823 Y96.455 E1.13154
G1 X102.110 Y96.618 E1.14251
G1 X102.446 Y96.852 E1.15613
G1 X102.701 Y97.069 E1.16727
G1 X103.025 Y97.405 E1.18277
G1 X103.285 Y97.741 E1.19691
G1 X103.464 Y98.027 E1.20814
G1 X103.622 Y98.335 E1.21964
G1 X103.750 Y98.648 E1.23090
G1 X103.897 Y99.159 E1.24858
G1 X103.954 Y99.488 E1.25969
G1 X103.988 Y100.003 E1.27685
G1 X103.973 Y100.339 E1.28806
G1 X103.928 Y100.685 E1.29965
G1 X103.851 Y101.031 E1.31144
G1 X103.693 Y101.502 E1.32795
G1 X103.539 Y101.835 E1.34017
G1 X103.355 Y102.154 E1.35242
G1 X103.142 Y102.454 E1.36466
G1 X102.801 Y102.837 E1.38173
G1 X102.518 Y103.091 E1.39436
G1 X102.230 Y103.304 E1.40627
G1 X101.913 Y103.498 E1.41864
G1 X101.463 Y103.708 E1.43516
G1 X101.128 Y103.824 E1.44694
G1 X100.797 Y103.906 E1.45828
G1 X100.453 Y103.961 E1.46986
G1 X100.010 Y103.986 E1.48461
G1 X99.657 Y103.972 E1.49637
G1 X99.330 Y103.930 E1.50734
G1 X98.851 Y103.817 E1.52372
G1 X98.508 Y103.697 E1.53580
G1 X98.174 Y103.544 E1.54802
G1 X97.854 Y103.360 E1.56028
G1 X97.551 Y103.146 E1.57265
G1 X97.270 Y102.905 E1.58493
G1 X97.008 Y102.634 E1.59747
G1 X96.694 Y102.228 E1.61456
G1 X96.509 Y101.925 E1.62635
G1 X96.346 Y101.595 E1.63861
G1 X96.180 Y101.140 E1.65471
G1 X96.094 Y100.798 E1.66643
G1 X96.039 Y100.460 E1.67782
G1 X96.013 Y100.021 E1.69245
G1 X96.028 Y99.658 E1.70454
G1 X96.072 Y99.314 E1.71607
G1 X96.153 Y98.955 E1.72832
G1 X96.314 Y98.481 E1.74496
G1 X96.468 Y98.150 E1.75711
G1 X96.649 Y97.840 E1.76905
G1 X96.861 Y97.543 E1.78118
G1 X97.181 Y97.181 E1.79724
G1 X97.423 Y96.959 E1.80819
G1 X97.683 Y96.757 E1.81911
G1 X97.976 Y96.567 E1.83075
G1 X98.161 Y96.922 F7800.000
G1 X98.495 Y96.745 E1.84334 F675.437
G1 X98.775 Y96.629 E1.85343
G1 X99.069 Y96.537 E1.86365
G1 X99.368 Y96.470 E1.87386
G1 X99.747 Y96.423 E1.88657
G1 X100.051 Y96.415 E1.89665
G1 X100.464 Y96.445 E1.91046
G1 X100.827 Y96.511 E1.92270
G1 X101.105 Y96.589 E1.93232
G1 X101.474 Y96.732 E1.94547
G1 X101.799 Y96.898 E1.95761
G1 X102.048 Y97.056 E1.96744
G1 X102.290 Y97.240 E1.97755
G1 X102.646 Y97.579 E1.99389
G1 X102.844 Y97.815 E2.00412
G1 X103.020 Y98.066 E2.01433
G1 X103.208 Y98.398 E2.02703
G1 X103.333 Y98.675 E2.03712
G1 X103.432 Y98.959 E2.04712
G1 X103.528 Y99.355 E2.06069
G1 X103.576 Y99.716 E2.07279
G1 X103.587 Y100.001 E2.08229
G1 X103.574 Y100.309 E2.09254
G1 X103.511 Y100.731 E2.10671
G1 X103.432 Y101.041 E2.11736
G1 X103.323 Y101.349 E2.12825
G1 X103.184 Y101.650 E2.13927
G1 X102.952 Y102.036 E2.15425
G1 X102.749 Y102.303 E2.16541
G1 X102.521 Y102.551 E2.17663
G1 X102.268 Y102.778 E2.18791
G1 X101.902 Y103.040 E2.20287
G1 X101.614 Y103.202 E2.21388
G1 X101.317 Y103.336 E2.22471
G1 X101.015 Y103.440 E2.23534
G1 X100.605 Y103.535 E2.24933
G1 X100.011 Y103.586 E2.26917
G1 X99.696 Y103.574 E2.27966
G1 X99.281 Y103.513 E2.29361
G1 X98.970 Y103.435 E2.30428
G1 X98.660 Y103.327 E2.31518
G1 X98.359 Y103.189 E2.32621
G1 X98.070 Y103.023 E2.33728
G1 X97.796 Y102.830 E2.34843
G1 X97.541 Y102.611 E2.35959
G1 X97.230 Y102.278 E2.37477
G1 X97.028 Y102.008 E2.38599
G1 X96.857 Y101.728 E2.39688
G1 X96.712 Y101.433 E2.40783
G1 X96.563 Y101.026 E2.42222
G1 X96.486 Y100.719 E2.43278
G1 X96.437 Y100.410 E2.44317
G1 X96.413 Y100.022 E2.45610
G1 X96.426 Y99.697 E2.46691
G1 X96.490 Y99.263 E2.48150
G1 X96.572 Y98.945 E2.49244
G1 X96.683 Y98.634 E2.50340
G1 X96.823 Y98.336 E2.51437
G1 X97.052 Y97.958 E2.52906
G1 X97.248 Y97.700 E2.53984
G1 X97.543 Y97.389 E2.55411
G1 X97.821 Y97.151 E2.56627
G1 X98.109 Y96.954 E2.57789
G1 X98.161 Y96.544 F7800.000
G1 F1800.000 E1.57789
G92 E0
G1 X91.652 Y103.317 F7800.000
G1 E1.00000 F1800.000
G1 X91.391 Y102.568 E1.02637 F675.437
G1 X91.288 Y102.192 E1.03934
G1 X91.165 Y101.626 E1.05862
G1 X91.050 Y100.784 E1.08689
G1 X91.015 Y100.005 E1.11281
G1 X91.057 Y99.142 E1.14157
G1 X91.133 Y98.559 E1.16112
G1 X91.204 Y98.173 E1.17415
G1 X91.426 Y97.316 E1.20361
G1 X91.697 Y96.568 E1.23006
G1 X92.029 Y95.854 E1.25625
G1 X92.478 Y95.089 E1.28575
G1 X92.700 Y94.764 E1.29885
G1 X93.060 Y94.296 E1.31847
G1 X93.648 Y93.647 E1.34760
G1 X94.266 Y93.085 E1.37538
G1 X95.033 Y92.515 E1.40720
G1 X95.784 Y92.067 E1.43625
G1 X96.587 Y91.691 E1.46575
G1 X97.150 Y91.481 E1.48573
G1 X97.531 Y91.363 E1.49902
G1 X98.411 Y91.158 E1.52905
G1 X99.201 Y91.052 E1.55557
G1 X99.997 Y91.017 E1.58208
G1 X100.797 Y91.052 E1.60871
G1 X101.673 Y91.174 E1.63813
G1 X102.055 Y91.255 E1.65111
G1 X102.617 Y91.407 E1.67048
G1 X103.441 Y91.701 E1.69957
G1 X104.194 Y92.056 E1.72727
G1 X105.015 Y92.547 E1.75909
G1 X105.716 Y93.069 E1.78816
G1 X106.302 Y93.598 E1.81440
G1 X106.844 Y94.181 E1.84089
G1 X107.333 Y94.811 E1.86740
G1 X107.817 Y95.573 E1.89743
G1 X108.096 Y96.107 E1.91747
G1 X108.299 Y96.560 E1.93398
G1 X108.572 Y97.312 E1.96061
G1 X108.795 Y98.168 E1.99002
G1 X108.866 Y98.552 E2.00302
G1 X108.942 Y99.129 E2.02237
G1 X108.985 Y100.004 E2.05151
G1 X108.935 Y100.936 E2.08254
G1 X108.801 Y101.804 E2.11174
G1 X108.619 Y102.536 E2.13685
G1 X108.332 Y103.359 E2.16583
G1 X108.091 Y103.904 E2.18564
G1 X107.910 Y104.258 E2.19889
G1 X107.498 Y104.948 E2.22560
G1 X106.958 Y105.683 E2.25591
G1 X106.417 Y106.287 E2.28290
G1 X105.818 Y106.845 E2.31013
G1 X105.095 Y107.399 E2.34044
G1 X104.757 Y107.620 E2.35386
G1 X104.241 Y107.919 E2.37369
G1 X103.411 Y108.311 E2.40423
G1 X102.661 Y108.581 E2.43074
G1 X101.814 Y108.798 E2.45982
G1 X100.873 Y108.941 E2.49147
G1 X100.005 Y108.983 E2.52039
G1 X99.053 Y108.933 E2.55209
G1 X98.204 Y108.803 E2.58066
G1 X97.375 Y108.591 E2.60911
G1 X96.821 Y108.402 E2.62860
G1 X96.456 Y108.255 E2.64167
G1 X95.654 Y107.862 E2.67138
G1 X94.967 Y107.441 E2.69818
G1 X94.315 Y106.956 E2.72520
G1 X93.637 Y106.341 E2.75564
G1 X93.356 Y106.046 E2.76921
G1 X92.958 Y105.578 E2.78963
G1 X92.485 Y104.922 E2.81656
G1 X92.031 Y104.147 E2.84642
G1 X91.674 Y103.373 E2.87477
G1 X91.318 Y103.561 F7800.000
G1 X91.037 Y102.779 E2.90239 F600.000
G1 X90.810 Y101.895 E2.93274
G1 X90.738 Y101.505 E2.94595
G1 X90.661 Y100.915 E2.96573
G1 X90.615 Y100.005 E2.99602
G1 X90.659 Y99.101 E3.02613
G1 X90.737 Y98.497 E3.04640
G1 X90.812 Y98.094 E3.06002
G1 X91.045 Y97.196 E3.09086
G1 X91.327 Y96.418 E3.11840
G1 X91.675 Y95.670 E3.14585
G1 X92.144 Y94.869 E3.17673
G1 X92.376 Y94.529 E3.19042
G1 X92.749 Y94.044 E3.21077
G1 X93.365 Y93.364 E3.24126
G1 X94.012 Y92.776 E3.27035
G1 X94.481 Y92.412 E3.29010
G1 X94.810 Y92.183 E3.30345
G1 X95.596 Y91.714 E3.33388
G1 X96.340 Y91.359 E3.36130
G1 X97.220 Y91.038 E3.39245
G1 X98.128 Y90.807 E3.42361
G1 X99.061 Y90.664 E3.45500
G1 X99.997 Y90.616 E3.48617
G1 X100.830 Y90.653 E3.51391
G1 X101.750 Y90.782 E3.54480
G1 X102.149 Y90.866 E3.55836
G1 X102.731 Y91.023 E3.57843
G1 X103.591 Y91.331 E3.60881
G1 X104.383 Y91.703 E3.63791
G1 X104.899 Y91.997 E3.65765
G1 X105.236 Y92.214 E3.67100
G1 X105.970 Y92.761 E3.70143
G1 X106.583 Y93.312 E3.72885
G1 X107.149 Y93.922 E3.75651
G1 X107.661 Y94.581 E3.78429
G1 X107.952 Y95.019 E3.80175
G1 X108.266 Y95.560 E3.82258
G1 X108.668 Y96.407 E3.85375
G1 X108.953 Y97.190 E3.88149
G1 X109.187 Y98.089 E3.91237
G1 X109.261 Y98.490 E3.92594
G1 X109.339 Y99.088 E3.94600
G1 X109.385 Y100.002 E3.97642
G1 X109.333 Y100.976 E4.00886
G1 X109.194 Y101.882 E4.03935
G1 X109.002 Y102.649 E4.06566
G1 X108.702 Y103.511 E4.09601
G1 X108.452 Y104.075 E4.11654
G1 X108.263 Y104.446 E4.13038
G1 X107.833 Y105.167 E4.15829
G1 X107.268 Y105.935 E4.19002
G1 X106.701 Y106.569 E4.21829
G1 X106.077 Y107.150 E4.24665
G1 X105.319 Y107.730 E4.27839
G1 X104.967 Y107.961 E4.29241
G1 X104.432 Y108.271 E4.31297
G1 X103.563 Y108.681 E4.34494
G1 X102.779 Y108.963 E4.37264
G1 X101.893 Y109.191 E4.40308
G1 X101.501 Y109.263 E4.41634
G1 X100.914 Y109.339 E4.43601
G1 X100.100 Y109.383 E4.46312
G1 X99.214 Y109.350 E4.49263
G1 X98.221 Y109.213 E4.52597
G1 X97.353 Y109.003 E4.55567
G1 X96.489 Y108.702 E4.58608
G1 X95.924 Y108.452 E4.60665
G1 X95.553 Y108.262 E4.62051
G1 X94.831 Y107.831 E4.64847
G1 X94.062 Y107.266 E4.68022
G1 X93.427 Y106.697 E4.70858
G1 X92.848 Y106.074 E4.73686
G1 X92.268 Y105.317 E4.76858
G1 X92.038 Y104.965 E4.78257
G1 X91.723 Y104.421 E4.80346
G1 X91.341 Y103.616 E4.83311
G1 X91.566 Y103.247 F7800.000
G1 X92.019 Y103.335 F7800.000
G1 X96.654 Y107.970 E5.18201 F1350.874
G1 X97.996 Y108.407 E5.25712
G1 X91.592 Y102.003 E5.73918
G1 X91.398 Y100.904 E5.79856
G1 X99.090 Y108.596 E6.37755
G1 X100.050 Y108.650 E6.42872
G1 X91.350 Y99.950 E7.08362
G1 X91.399 Y99.094 E7.12928
G1 X100.902 Y108.597 E7.84465
G1 X101.690 Y108.480 E7.88704
G1 X91.517 Y98.306 E8.65283
G1 X91.699 Y97.584 E8.69251
G1 X96.246 Y102.130 E9.03474
G1 X95.743 Y100.722 F7800.000
G1 X91.927 Y96.906 E9.32199 F1350.874
G1 X92.200 Y96.274 E9.35865
G1 X95.691 Y99.765 E9.62143
G1 X95.809 Y98.977 E9.66380
G1 X92.514 Y95.683 E9.91181
G1 X92.857 Y95.121 E9.94686
G1 X96.034 Y98.297 E10.18597
G1 X96.345 Y97.703 E10.22166
G1 X93.244 Y94.602 E10.45512
G1 X93.667 Y94.120 E10.48926
G1 X96.734 Y97.187 E10.72014
G1 X97.188 Y96.735 E10.75421
G1 X94.119 Y93.666 E10.98521
G1 X94.604 Y93.246 E11.01937
G1 X97.703 Y96.345 E11.25265
G1 X98.297 Y96.034 E11.28834
G1 X95.124 Y92.860 E11.52721
G1 X95.682 Y92.514 E11.56220
G1 X98.977 Y95.809 E11.81026
G1 X99.768 Y95.694 E11.85279
G1 X96.274 Y92.201 E12.11580
G1 X96.907 Y91.928 E12.15248
G1 X100.729 Y95.750 E12.44014
G1 X102.130 Y96.246 F7800.000
G1 X97.584 Y91.700 E12.78234 F1350.874
G1 X98.313 Y91.523 E12.82225
G1 X108.483 Y101.693 E13.58780
G1 X108.306 Y102.421 E13.62769
G1 X103.742 Y97.858 E13.97120
G1 X104.253 Y99.274 F7800.000
G1 X108.073 Y103.094 E14.25874 F1350.874
G1 X107.804 Y103.730 E14.29550
G1 X104.309 Y100.235 E14.55860
G1 X104.191 Y101.023 E14.60099
G1 X107.488 Y104.319 E14.84911
G1 X107.139 Y104.876 E14.88407
G1 X103.966 Y101.702 E15.12298
G1 X103.655 Y102.297 E15.15869
G1 X106.756 Y105.398 E15.39213
G1 X106.335 Y105.882 E15.42628
G1 X103.266 Y102.813 E15.65731
G1 X102.816 Y103.269 E15.69139
G1 X105.881 Y106.334 E15.92211
G1 X105.394 Y106.752 E15.95628
G1 X102.295 Y103.653 E16.18958
G1 X101.701 Y103.964 E16.22529
G1 X104.880 Y107.143 E16.46461
G1 X104.320 Y107.489 E16.49961
G1 X101.021 Y104.189 E16.74801
G1 X100.233 Y104.307 E16.79040
G1 X103.725 Y107.799 E17.05325
G1 X103.091 Y108.070 E17.08995
G1 X99.272 Y104.251 E17.37743
G1 X97.862 Y103.747 F7800.000
G1 X102.418 Y108.302 E17.72033 F1350.874
G1 F1800.000 E16.72033
G92 E0
G1 X94.075 Y106.296 F7800.000
G1 E1.00000 F1800.000
G1 X93.779 Y106.000 E1.02229 F1350.874
G1 F1800.000 E0.02229
G92 E0
G1 X108.603 Y100.908 F7800.000
G1 E1.00000 F1800.000
G1 X99.093 Y91.398 E1.71585 F1350.874
G1 X99.949 Y91.348 E1.76147
G1 X108.650 Y100.050 E2.41648
G1 X108.602 Y99.097 E2.46729
G1 X100.907 Y91.402 E3.04650
G1 X101.994 Y91.583 E3.10513
G1 X108.408 Y97.997 E3.58796
G1 X107.984 Y96.668 E3.66221
G1 X103.333 Y92.017 E4.01232
G1 F1800.000 E3.01232
G92 E0
G1 X105.926 Y93.705 F7800.000
G1 E1.00000 F1800.000
G1 X106.256 Y94.034 E1.02480 F1350.874
G1 F1800.000 E0.02480
G92 E0
G1 Z0.900 F7800.000
G1 X102.939 Y97.306 F7800.000
G1 E1.00000 F1800.000
G1 X103.168 Y97.580 E1.01187 F675.505
G1 X103.370 Y97.871 E1.02364
G1 X103.554 Y98.194 E1.03600
G1 X103.697 Y98.509 E1.04753
G1 X103.812 Y98.833 E1.05897
G1 X103.898 Y99.162 E1.07026
G1 X103.956 Y99.501 E1.08171
G1 X103.988 Y100.003 E1.09842
G1 X103.955 Y100.503 E1.11510
G1 X103.897 Y100.840 E1.12649
G1 X103.809 Y101.178 E1.13809
G1 X103.689 Y101.513 E1.14993
G1 X103.537 Y101.839 E1.16189
G1 X103.261 Y102.293 E1.17956
G1 X103.039 Y102.580 E1.19162
G1 X102.791 Y102.846 E1.20372
G1 X102.515 Y103.093 E1.21604
G1 X102.236 Y103.301 E1.22763
G1 X101.926 Y103.490 E1.23969
G1 X101.453 Y103.712 E1.25708
G1 X101.127 Y103.824 E1.26855
G1 X100.804 Y103.905 E1.27960
G1 X100.467 Y103.959 E1.29098
G1 X100.002 Y103.987 E1.30648
G1 X99.651 Y103.971 E1.31816
G1 X99.162 Y103.897 E1.33460
G1 X98.824 Y103.809 E1.34623
G1 X98.488 Y103.689 E1.35808
G1 X98.162 Y103.537 E1.37005
G1 X97.713 Y103.265 E1.38751
G1 X97.420 Y103.039 E1.39980
G1 X97.154 Y102.792 E1.41189
G1 X96.912 Y102.521 E1.42398
G1 X96.692 Y102.225 E1.43623
G1 X96.512 Y101.931 E1.44771
G1 X96.288 Y101.455 E1.46520
G1 X96.177 Y101.131 E1.47662
G1 X96.093 Y100.796 E1.48810
G1 X96.040 Y100.463 E1.49931
G1 X96.013 Y100.003 E1.51461
G1 X96.028 Y99.650 E1.52638
G1 X96.106 Y99.145 E1.54338
G1 X96.197 Y98.804 E1.55512
G1 X96.318 Y98.472 E1.56687
G1 X96.468 Y98.151 E1.57864
G1 X96.642 Y97.851 E1.59020
G1 X96.846 Y97.562 E1.60196
G1 X97.181 Y97.181 E1.61882
G1 X97.569 Y96.840 E1.63600
G1 X97.846 Y96.645 E1.64727
G1 X98.153 Y96.468 E1.65905
G1 X98.471 Y96.319 E1.67073
G1 X98.817 Y96.194 E1.68299
G1 X99.322 Y96.072 E1.70024
G1 X99.690 Y96.026 E1.71260
G1 X100.037 Y96.014 E1.72414
G1 X100.381 Y96.032 E1.73558
G1 X100.717 Y96.079 E1.74689
G1 X101.052 Y96.155 E1.75832
G1 X101.525 Y96.317 E1.77494
G1 X101.835 Y96.461 E1.78628
G1 X102.276 Y96.727 E1.80342
G1 X102.557 Y96.942 E1.81518
G1 X102.897 Y97.263 E1.83076
G1 X102.634 Y97.567 F7800.000
G1 X102.850 Y97.823 E1.84190 F675.505
G1 X103.032 Y98.084 E1.85248
G1 X103.196 Y98.372 E1.86351
G1 X103.326 Y98.658 E1.87396
G1 X103.430 Y98.952 E1.88432
G1 X103.507 Y99.249 E1.89455
G1 X103.559 Y99.551 E1.90473
G1 X103.587 Y100.001 E1.91973
G1 X103.558 Y100.452 E1.93476
G1 X103.506 Y100.756 E1.94500
G1 X103.427 Y101.059 E1.95544
G1 X103.319 Y101.361 E1.96610
G1 X103.182 Y101.654 E1.97686
G1 X102.934 Y102.062 E1.99274
G1 X102.735 Y102.321 E2.00360
G1 X102.512 Y102.560 E2.01449
G1 X102.266 Y102.780 E2.02545
G1 X102.008 Y102.972 E2.03614
G1 X101.732 Y103.141 E2.04692
G1 X101.307 Y103.340 E2.06250
G1 X101.014 Y103.440 E2.07283
G1 X100.721 Y103.513 E2.08287
G1 X100.418 Y103.562 E2.09306
G1 X100.002 Y103.586 E2.10692
G1 X99.689 Y103.573 E2.11734
G1 X99.247 Y103.506 E2.13222
G1 X98.942 Y103.427 E2.14268
G1 X98.640 Y103.319 E2.15336
G1 X98.346 Y103.183 E2.16413
G1 X98.066 Y103.020 E2.17490
G1 X97.800 Y102.833 E2.18573
G1 X97.440 Y102.512 E2.20177
G1 X97.222 Y102.268 E2.21265
G1 X97.026 Y102.005 E2.22355
G1 X96.860 Y101.734 E2.23413
G1 X96.661 Y101.309 E2.24973
G1 X96.560 Y101.017 E2.26002
G1 X96.485 Y100.716 E2.27033
G1 X96.437 Y100.412 E2.28056
G1 X96.413 Y100.004 E2.29416
G1 X96.427 Y99.689 E2.30464
G1 X96.496 Y99.231 E2.32004
G1 X96.578 Y98.924 E2.33062
G1 X96.687 Y98.625 E2.34120
G1 X96.822 Y98.337 E2.35179
G1 X96.981 Y98.064 E2.36228
G1 X97.163 Y97.806 E2.37278
G1 X97.464 Y97.464 E2.38793
G1 X97.814 Y97.157 E2.40341
G1 X98.065 Y96.981 E2.41363
G1 X98.338 Y96.822 E2.42412
G1 X98.624 Y96.689 E2.43462
G1 X98.934 Y96.576 E2.44560
G1 X99.240 Y96.496 E2.45611
G1 X99.702 Y96.427 E2.47165
G1 X100.033 Y96.414 E2.48267
G1 X100.344 Y96.431 E2.49303
G1 X100.649 Y96.473 E2.50326
G1 X100.947 Y96.541 E2.51343
G1 X101.375 Y96.688 E2.52848
G1 X101.790 Y96.893 E2.54389
G1 X102.049 Y97.057 E2.55410
G1 X102.300 Y97.249 E2.56459
G1 X102.592 Y97.523 E2.57794
G1 X102.961 Y97.496 F7800.000
G1 F1800.000 E1.57794
G92 E0
G1 X91.221 Y101.909 F7800.000
G1 E1.00000 F1800.000
G1 X91.076 Y101.033 E1.02953 F675.505
G1 X91.017 Y100.144 E1.05916
G1 X91.048 Y99.237 E1.08936
G1 X91.148 Y98.464 E1.11528
G1 X91.316 Y97.696 E1.14143
G1 X91.551 Y96.944 E1.16762
G1 X91.748 Y96.449 E1.18534
G1 X91.970 Y95.973 E1.20281
G1 X92.202 Y95.537 E1.21923
G1 X92.426 Y95.168 E1.23361
G1 X92.876 Y94.526 E1.25967
G1 X93.467 Y93.834 E1.28993
G1 X94.099 Y93.227 E1.31910
G1 X94.794 Y92.679 E1.34852
G1 X95.556 Y92.193 E1.37859
G1 X96.374 Y91.781 E1.40905
G1 X97.243 Y91.450 E1.43996
G1 X98.011 Y91.239 E1.46647
G1 X98.803 Y91.097 E1.49324
G1 X99.733 Y91.021 E1.52427
G1 X100.261 Y91.021 E1.54183
G1 X100.797 Y91.052 E1.55968
G1 X101.579 Y91.156 E1.58591
G1 X102.339 Y91.326 E1.61181
G1 X103.071 Y91.558 E1.63736
G1 X103.890 Y91.903 E1.66691
G1 X104.333 Y92.131 E1.68350
G1 X104.772 Y92.389 E1.70042
G1 X105.512 Y92.907 E1.73048
G1 X106.206 Y93.505 E1.76095
G1 X106.844 Y94.181 E1.79186
G1 X107.333 Y94.811 E1.81838
G1 X107.768 Y95.487 E1.84514
G1 X108.194 Y96.318 E1.87617
G1 X108.396 Y96.806 E1.89375
G1 X108.572 Y97.312 E1.91159
G1 X108.775 Y98.074 E1.93780
G1 X108.909 Y98.842 E1.96371
G1 X108.976 Y99.607 E1.98927
G1 X108.969 Y100.522 E2.01971
G1 X108.872 Y101.413 E2.04951
G1 X108.686 Y102.292 E2.07938
G1 X108.414 Y103.147 E2.10924
G1 X108.049 Y103.991 E2.13983
G1 X107.589 Y104.807 E2.17096
G1 X107.044 Y105.576 E2.20233
G1 X106.509 Y106.191 E2.22942
G1 X105.818 Y106.845 E2.26109
G1 X105.176 Y107.343 E2.28810
G1 X104.498 Y107.777 E2.31489
G1 X103.657 Y108.205 E2.34626
G1 X102.787 Y108.540 E2.37727
G1 X101.906 Y108.779 E2.40763
G1 X101.031 Y108.924 E2.43715
G1 X100.194 Y108.982 E2.46505
G1 X99.344 Y108.960 E2.49333
G1 X99.065 Y108.938 E2.50263
G1 X98.448 Y108.849 E2.52336
G1 X97.590 Y108.654 E2.55263
G1 X96.731 Y108.368 E2.58275
G1 X96.008 Y108.048 E2.60905
G1 X95.191 Y107.588 E2.64022
G1 X94.422 Y107.042 E2.67161
G1 X94.008 Y106.694 E2.68960
G1 X93.705 Y106.410 E2.70339
G1 X93.152 Y105.815 E2.73039
G1 X92.656 Y105.174 E2.75737
G1 X92.222 Y104.496 E2.78415
G1 X91.794 Y103.655 E2.81554
G1 X91.459 Y102.786 E2.84649
G1 X91.234 Y101.967 E2.87474
G1 X90.830 Y101.994 F7800.000
G1 X90.678 Y101.079 E2.90559 F600.000
G1 X90.617 Y100.151 E2.93651
G1 X90.650 Y99.203 E2.96808
G1 X90.754 Y98.395 E2.99515
G1 X90.930 Y97.593 E3.02247
G1 X91.176 Y96.806 E3.04990
G1 X91.435 Y96.168 E3.07281
G1 X91.757 Y95.499 E3.09748
G1 X92.088 Y94.954 E3.11869
G1 X92.559 Y94.282 E3.14598
G1 X93.176 Y93.559 E3.17762
G1 X93.836 Y92.925 E3.20803
G1 X94.562 Y92.353 E3.23879
G1 X95.359 Y91.845 E3.27022
G1 X96.212 Y91.415 E3.30199
G1 X96.726 Y91.206 E3.32045
G1 X97.120 Y91.069 E3.33432
G1 X97.925 Y90.849 E3.36208
G1 X98.750 Y90.700 E3.38997
G1 X99.165 Y90.654 E3.40386
G1 X99.722 Y90.621 E3.42241
G1 X100.272 Y90.621 E3.44071
G1 X100.830 Y90.653 E3.45930
G1 X101.649 Y90.762 E3.48677
G1 X102.443 Y90.940 E3.51382
G1 X103.210 Y91.183 E3.54060
G1 X104.063 Y91.542 E3.57140
G1 X104.526 Y91.780 E3.58869
G1 X104.984 Y92.050 E3.60638
G1 X105.758 Y92.592 E3.63781
G1 X106.482 Y93.216 E3.66959
G1 X107.149 Y93.922 E3.70189
G1 X107.661 Y94.581 E3.72967
G1 X108.114 Y95.287 E3.75754
G1 X108.316 Y95.653 E3.77145
G1 X108.559 Y96.154 E3.78999
G1 X108.770 Y96.663 E3.80830
G1 X108.953 Y97.190 E3.82688
G1 X109.166 Y97.988 E3.85435
G1 X109.306 Y98.790 E3.88140
G1 X109.376 Y99.592 E3.90818
G1 X109.368 Y100.545 E3.93987
G1 X109.267 Y101.478 E3.97110
G1 X109.073 Y102.395 E4.00226
G1 X108.789 Y103.287 E4.03339
G1 X108.407 Y104.169 E4.06537
G1 X108.213 Y104.538 E4.07924
G1 X107.927 Y105.021 E4.09792
G1 X107.613 Y105.485 E4.11653
G1 X107.358 Y105.823 E4.13064
G1 X106.800 Y106.466 E4.15894
G1 X106.394 Y106.868 E4.17793
G1 X106.077 Y107.150 E4.19205
G1 X105.407 Y107.670 E4.22027
G1 X104.698 Y108.123 E4.24825
G1 X104.343 Y108.318 E4.26171
G1 X103.820 Y108.571 E4.28106
G1 X102.912 Y108.920 E4.31340
G1 X101.991 Y109.170 E4.34513
G1 X101.076 Y109.322 E4.37600
G1 X100.203 Y109.382 E4.40510
G1 X99.315 Y109.359 E4.43466
G1 X98.379 Y109.242 E4.46603
G1 X97.483 Y109.040 E4.49656
G1 X96.585 Y108.741 E4.52805
G1 X95.830 Y108.406 E4.55552
G1 X95.460 Y108.213 E4.56940
G1 X94.976 Y107.926 E4.58811
G1 X94.513 Y107.612 E4.60673
G1 X94.174 Y107.356 E4.62085
G1 X93.739 Y106.990 E4.63975
G1 X93.427 Y106.697 E4.65400
G1 X92.848 Y106.074 E4.68227
G1 X92.329 Y105.404 E4.71046
G1 X91.876 Y104.696 E4.73842
G1 X91.674 Y104.329 E4.75234
G1 X91.428 Y103.817 E4.77126
G1 X91.079 Y102.911 E4.80353
G1 X90.843 Y102.052 E4.83316
G1 X91.130 Y101.729 F7800.000
G1 F1800.000 E3.83316
G92 E0
G1 X92.013 Y96.675 F7800.000
G1 E1.00000 F1800.000
G1 X96.672 Y92.016 E1.35065 F1351.010
G1 X98.010 Y91.583 E1.42547
G1 X91.594 Y97.999 E1.90833
G1 X91.402 Y99.096 E1.96761
G1 X99.097 Y91.401 E2.54675
G1 X100.053 Y91.351 E2.59769
G1 X91.352 Y100.052 E3.25253
G1 X91.400 Y100.909 E3.29824
G1 X100.906 Y91.402 E4.01374
G1 F1800.000 E3.01374
G92 E0
G1 X99.281 Y95.743 F7800.000
G1 E1.00000 F1800.000
G1 X103.094 Y91.930 E1.28700 F1351.010
G1 X103.726 Y92.203 E1.32364
G1 X100.239 Y95.690 E1.58606
G1 X101.025 Y95.809 E1.62837
G1 X104.318 Y92.516 E1.87617
G1 X104.879 Y92.861 E1.91119
G1 X101.703 Y96.036 E2.15021
G1 X102.295 Y96.349 E2.18586
G1 X105.398 Y93.246 E2.41939
G1 X105.883 Y93.666 E2.45353
G1 X102.817 Y96.733 E2.68433
G1 X103.269 Y97.185 E2.71839
G1 X106.335 Y94.120 E2.94910
G1 X106.754 Y94.605 E2.98325
G1 X103.656 Y97.704 E3.21643
G1 X103.962 Y98.303 E3.25224
G1 X107.140 Y95.125 E3.49144
G1 X107.490 Y95.680 E3.52636
G1 X104.191 Y98.979 E3.77469
G1 X104.305 Y99.770 E3.81722
G1 X107.805 Y96.270 E4.08065
G1 X108.073 Y96.908 E4.11744
G1 X104.258 Y100.723 E4.40458
G1 X103.747 Y102.138 F7800.000
G1 X108.301 Y97.585 E4.74729 F1351.010
G1 F1800.000 E3.74729
G92 E0
G1 X106.301 Y105.921 F7800.000
G1 E1.00000 F1800.000
G1 X105.973 Y106.248 E1.02466 F1351.010
G1 F1800.000 E0.02466
G92 E0
G1 X103.338 Y107.978 F7800.000
G1 E1.00000 F1800.000
G1 X107.977 Y103.339 E1.34913 F1351.010
G1 X108.411 Y102.000 E1.42403
G1 X101.998 Y108.413 E1.90663
G1 X100.909 Y108.597 E1.96542
G1 X108.603 Y100.903 E2.54449
G1 X108.650 Y99.951 E2.59521
G1 X99.954 Y108.647 E3.24967
G1 X99.099 Y108.597 E3.29526
G1 X108.602 Y99.094 E4.01045
G1 X108.483 Y98.308 E4.05278
G1 X98.309 Y108.481 E4.81846
G1 X97.580 Y108.306 E4.85839
G1 X102.137 Y103.749 E5.20135
G1 X100.724 Y104.256 F7800.000
G1 X96.903 Y108.077 E5.48892 F1351.010
G1 X96.276 Y107.799 E5.52543
G1 X99.766 Y104.309 E5.78811
G1 X98.977 Y104.193 E5.83056
G1 X95.685 Y107.485 E6.07834
G1 X95.126 Y107.139 E6.11334
G1 X98.300 Y103.965 E6.35223
G1 X97.704 Y103.655 E6.38794
G1 X94.603 Y106.757 E6.62135
G1 X94.119 Y106.336 E6.65550
G1 X97.185 Y103.269 E6.88628
G1 X96.731 Y102.818 E6.92034
G1 X93.669 Y105.881 E7.15083
G1 X93.244 Y105.401 E7.18495
G1 X96.351 Y102.293 E7.41883
G1 X96.034 Y101.705 E7.45439
G1 X92.861 Y104.878 E7.69321
G1 X92.515 Y104.319 E7.72821
G1 X95.806 Y101.028 E7.97585
G1 X95.692 Y100.237 E8.01838
G1 X92.204 Y103.725 E8.28087
G1 X91.931 Y103.093 E8.31752
G1 X95.751 Y99.273 E8.60499
G1 X96.241 Y97.877 F7800.000
G1 X91.699 Y102.420 E8.94686 F1351.010
G1 X91.521 Y101.693 E8.98670
G1 X101.695 Y91.519 E9.75239
G1 X102.421 Y91.698 E9.79218
G1 X97.870 Y96.248 E10.13465
G1 F1800.000 E9.13465
G92 E0
G1 X94.053 Y93.730 F7800.000
G1 E1.00000 F1800.000
G1 X93.700 Y94.083 E1.02658 F1351.010
G1 F1800.000 E0.02658
G92 E0
G1 Z1.100 F7800.000
G1 X97.063 Y97.304 F7800.000
G1 E1.00000 F1800.000
G1 X97.305 Y97.063 E1.01136 F675.921
G1 X97.707 Y96.739 E1.02851
G1 X98.001 Y96.551 E1.04011
G1 X98.314 Y96.388 E1.05186
G1 X98.808 Y96.196 E1.06949
G1 X99.151 Y96.105 E1.08131
G1 X99.502 Y96.045 E1.09313
G1 X99.855 Y96.017 E1.10492
G1 X100.207 Y96.019 E1.11663
G1 X100.553 Y96.053 E1.12819
G1 X100.891 Y96.115 E1.13961
G1 X101.373 Y96.258 E1.15633
G1 X101.763 Y96.422 E1.17040
G1 X102.135 Y96.634 E1.18466
G1 X102.421 Y96.833 E1.19626
G1 X102.692 Y97.060 E1.20799
G1 X103.059 Y97.443 E1.22565
G1 X103.274 Y97.726 E1.23746
G1 X103.463 Y98.026 E1.24927
G1 X103.626 Y98.342 E1.26108
G1 X103.758 Y98.668 E1.27277
G1 X103.860 Y99.001 E1.28435
G1 X103.932 Y99.337 E1.29577
G1 X103.984 Y99.836 E1.31247
G1 X103.973 Y100.335 E1.32909
G1 X103.929 Y100.679 E1.34061
G1 X103.856 Y101.013 E1.35199
G1 X103.752 Y101.349 E1.36368
G1 X103.616 Y101.680 E1.37559
G1 X103.358 Y102.149 E1.39340
G1 X103.150 Y102.443 E1.40536
G1 X102.916 Y102.719 E1.41739
G1 X102.657 Y102.972 E1.42943
G1 X102.237 Y103.300 E1.44716
G1 X101.927 Y103.490 E1.45926
G1 X101.451 Y103.713 E1.47674
G1 X100.964 Y103.868 E1.49376
G1 X100.467 Y103.959 E1.51054
G1 X100.000 Y103.987 E1.52611
G1 X99.495 Y103.961 E1.54293
G1 X99.495 Y104.076 E1.54676
G1 X98.484 Y103.687 E1.58279
G1 X98.159 Y103.536 E1.59471
G1 X97.700 Y103.257 E1.61257
G1 X97.280 Y102.915 E1.63058
G1 X96.910 Y102.519 E1.64861
G1 X96.692 Y102.225 E1.66079
G1 X96.428 Y101.770 E1.67828
G1 X96.228 Y101.290 E1.69558
G1 X96.093 Y100.795 E1.71264
G1 X96.039 Y100.457 E1.72405
G1 X96.016 Y100.150 E1.73428
G1 X96.028 Y99.648 E1.75096
G1 X96.119 Y99.079 E1.77012
G1 X95.956 Y99.079 E1.77552
G1 X96.643 Y97.849 E1.82238
G1 X96.843 Y97.566 E1.83391
G1 X97.024 Y97.349 E1.84330
G1 X97.358 Y97.575 F7800.000
G1 X97.575 Y97.358 E1.85352 F675.921
G1 X97.937 Y97.067 E1.86895
G1 X98.201 Y96.898 E1.87938
G1 X98.483 Y96.750 E1.88996
G1 X98.928 Y96.578 E1.90582
G1 X99.237 Y96.496 E1.91645
G1 X99.552 Y96.442 E1.92709
G1 X99.870 Y96.416 E1.93770
G1 X100.186 Y96.419 E1.94822
G1 X100.498 Y96.449 E1.95863
G1 X100.801 Y96.505 E1.96890
G1 X101.235 Y96.633 E1.98395
G1 X101.586 Y96.781 E1.99660
G1 X101.921 Y96.972 E2.00943
G1 X102.178 Y97.151 E2.01986
G1 X102.422 Y97.355 E2.03042
G1 X102.752 Y97.700 E2.04630
G1 X102.946 Y97.954 E2.05693
G1 X103.116 Y98.224 E2.06756
G1 X103.262 Y98.508 E2.07818
G1 X103.381 Y98.802 E2.08870
G1 X103.472 Y99.101 E2.09912
G1 X103.537 Y99.403 E2.10939
G1 X103.584 Y99.853 E2.12442
G1 X103.574 Y100.306 E2.13949
G1 X103.535 Y100.611 E2.14972
G1 X103.469 Y100.912 E2.15997
G1 X103.375 Y101.214 E2.17048
G1 X103.253 Y101.511 E2.18119
G1 X103.104 Y101.797 E2.19189
G1 X102.931 Y102.068 E2.20260
G1 X102.732 Y102.324 E2.21339
G1 X102.510 Y102.562 E2.22422
G1 X102.265 Y102.781 E2.23512
G1 X101.872 Y103.059 E2.25115
G1 X101.593 Y103.213 E2.26177
G1 X101.305 Y103.341 E2.27221
G1 X101.013 Y103.440 E2.28248
G1 X100.575 Y103.540 E2.29745
G1 X100.267 Y103.576 E2.30773
G1 X99.688 Y103.573 E2.32701
G1 X99.095 Y103.477 E2.34699
G1 X99.095 Y103.494 E2.34755
G1 X98.636 Y103.317 E2.36390
G1 X98.344 Y103.181 E2.37462
G1 X97.931 Y102.930 E2.39070
G1 X97.675 Y102.731 E2.40149
G1 X97.437 Y102.509 E2.41232
G1 X97.220 Y102.266 E2.42314
G1 X97.026 Y102.005 E2.43397
G1 X96.786 Y101.593 E2.44982
G1 X96.659 Y101.306 E2.46026
G1 X96.560 Y101.015 E2.47049
G1 X96.458 Y100.563 E2.48588
G1 X96.422 Y100.260 E2.49604
G1 X96.416 Y99.846 E2.50982
G1 X96.467 Y99.382 E2.52535
G1 X96.650 Y98.679 E2.54949
G1 X96.634 Y98.679 E2.55003
G1 X96.980 Y98.065 E2.57348
G1 X97.319 Y97.620 E2.59209
G1 X97.266 Y97.282 F7800.000
G1 F1800.000 E1.59209
G92 E0
G1 X91.177 Y101.693 F7800.000
G1 E1.00000 F1800.000
G1 X91.050 Y100.784 E1.03055 F675.921
G1 X91.017 Y99.842 E1.06187
G1 X91.070 Y99.015 E1.08945
G1 X91.224 Y98.078 E1.12102
G1 X91.316 Y97.696 E1.13411
G1 X91.478 Y97.155 E1.15289
G1 X91.785 Y96.363 E1.18114
G1 X92.218 Y95.511 E1.21291
G1 X92.644 Y94.842 E1.23929
G1 X93.121 Y94.222 E1.26531
G1 X93.760 Y93.538 E1.29646
G1 X94.361 Y93.007 E1.32313
G1 X95.112 Y92.462 E1.35399
G1 X95.932 Y91.990 E1.38547
G1 X96.707 Y91.642 E1.41372
G1 X97.243 Y91.450 E1.43264
G1 X97.626 Y91.336 E1.44594
G1 X98.411 Y91.158 E1.47271
G1 X99.201 Y91.052 E1.49922
G1 X99.599 Y91.025 E1.51251
G1 X100.167 Y91.018 E1.53137
G1 X101.021 Y91.075 E1.55984
G1 X101.962 Y91.233 E1.59159
G1 X102.707 Y91.434 E1.61725
G1 X103.582 Y91.762 E1.64834
G1 X104.303 Y92.114 E1.67504
G1 X105.094 Y92.600 E1.70589
G1 X105.844 Y93.177 E1.73738
G1 X106.462 Y93.760 E1.76562
G1 X106.844 Y94.181 E1.78454
G1 X107.096 Y94.491 E1.79784
G1 X107.561 Y95.148 E1.82460
G1 X107.962 Y95.838 E1.85113
G1 X108.138 Y96.196 E1.86440
G1 X108.362 Y96.718 E1.88329
G1 X108.621 Y97.472 E1.90980
G1 X108.820 Y98.295 E1.93797
G1 X108.951 Y99.223 E1.96915
G1 X108.985 Y100.004 E1.99516
G1 X108.942 Y100.867 E2.02388
G1 X108.801 Y101.804 E2.05539
G1 X108.571 Y102.693 E2.08594
G1 X108.283 Y103.478 E2.11377
G1 X108.049 Y103.991 E2.13251
G1 X107.863 Y104.345 E2.14580
G1 X107.443 Y105.031 E2.17257
G1 X106.958 Y105.683 E2.19957
G1 X106.417 Y106.287 E2.22656
G1 X106.120 Y106.577 E2.24035
G1 X105.685 Y106.956 E2.25956
G1 X104.985 Y107.474 E2.28852
G1 X104.161 Y107.962 E2.32039
G1 X103.411 Y108.311 E2.34789
G1 X102.661 Y108.581 E2.37440
G1 X101.746 Y108.812 E2.40578
G1 X101.316 Y108.887 E2.42030
G1 X100.784 Y108.950 E2.43811
G1 X99.938 Y108.984 E2.46629
G1 X99.123 Y108.941 E2.49343
G1 X98.204 Y108.803 E2.52433
G1 X97.309 Y108.571 E2.55510
G1 X96.522 Y108.283 E2.58297
G1 X96.008 Y108.048 E2.60177
G1 X95.654 Y107.862 E2.61506
G1 X94.967 Y107.441 E2.64186
G1 X94.315 Y106.956 E2.66888
G1 X94.008 Y106.694 E2.68232
G1 X93.585 Y106.289 E2.70177
G1 X93.004 Y105.636 E2.73088
G1 X92.525 Y104.982 E2.75782
G1 X92.222 Y104.496 E2.77687
G1 X92.031 Y104.147 E2.79011
G1 X91.688 Y103.409 E2.81718
G1 X91.419 Y102.661 E2.84363
G1 X91.189 Y101.752 E2.87479
G1 X90.796 Y101.828 F7800.000
G1 X90.667 Y100.984 E2.90318 F600.000
G1 X90.615 Y100.005 E2.93576
G1 X90.666 Y99.031 E2.96820
G1 X90.797 Y98.163 E2.99740
G1 X90.930 Y97.593 E3.01688
G1 X91.045 Y97.196 E3.03061
G1 X91.327 Y96.418 E3.05815
G1 X91.492 Y96.040 E3.07187
G1 X91.757 Y95.515 E3.09142
G1 X92.218 Y94.757 E3.12094
G1 X92.559 Y94.282 E3.14037
G1 X92.814 Y93.965 E3.15393
G1 X93.365 Y93.364 E3.18102
G1 X93.766 Y92.987 E3.19934
G1 X94.111 Y92.695 E3.21437
G1 X94.895 Y92.127 E3.24657
G1 X95.240 Y91.913 E3.26006
G1 X95.751 Y91.634 E3.27943
G1 X96.562 Y91.269 E3.30901
G1 X97.120 Y91.069 E3.32873
G1 X97.520 Y90.950 E3.34263
G1 X98.338 Y90.765 E3.37051
G1 X99.165 Y90.654 E3.39828
G1 X99.582 Y90.626 E3.41216
G1 X100.173 Y90.618 E3.43183
G1 X101.067 Y90.678 E3.46163
G1 X101.649 Y90.762 E3.48118
G1 X102.049 Y90.843 E3.49477
G1 X102.828 Y91.053 E3.52158
G1 X103.741 Y91.395 E3.55402
G1 X104.496 Y91.764 E3.58197
G1 X105.321 Y92.271 E3.61416
G1 X105.649 Y92.508 E3.62765
G1 X106.104 Y92.873 E3.64703
G1 X106.750 Y93.482 E3.67659
G1 X107.149 Y93.922 E3.69632
G1 X107.412 Y94.246 E3.71022
G1 X107.896 Y94.930 E3.73809
G1 X108.316 Y95.653 E3.76588
G1 X108.668 Y96.407 E3.79356
G1 X108.953 Y97.190 E3.82130
G1 X109.069 Y97.588 E3.83507
G1 X109.201 Y98.158 E3.85454
G1 X109.333 Y99.020 E3.88352
G1 X109.376 Y99.592 E3.90261
G1 X109.385 Y100.002 E3.91624
G1 X109.340 Y100.906 E3.94637
G1 X109.267 Y101.478 E3.96554
G1 X109.194 Y101.882 E3.97918
G1 X108.952 Y102.812 E4.01115
G1 X108.651 Y103.634 E4.04027
G1 X108.407 Y104.169 E4.05982
G1 X108.213 Y104.538 E4.07369
G1 X107.774 Y105.255 E4.10166
G1 X107.268 Y105.935 E4.12985
G1 X106.701 Y106.569 E4.15813
G1 X106.394 Y106.868 E4.17238
G1 X105.939 Y107.265 E4.19249
G1 X105.206 Y107.807 E4.22279
G1 X104.698 Y108.123 E4.24270
G1 X104.343 Y108.318 E4.25616
G1 X103.563 Y108.681 E4.28479
G1 X102.779 Y108.963 E4.31249
G1 X102.385 Y109.076 E4.32612
G1 X101.825 Y109.205 E4.34525
G1 X101.374 Y109.283 E4.36047
G1 X100.817 Y109.348 E4.37912
G1 X99.936 Y109.384 E4.40845
G1 X99.083 Y109.339 E4.43686
G1 X98.124 Y109.195 E4.46910
G1 X97.190 Y108.953 E4.50121
G1 X96.366 Y108.651 E4.53038
G1 X95.830 Y108.406 E4.54999
G1 X95.460 Y108.213 E4.56387
G1 X94.742 Y107.773 E4.59187
G1 X94.062 Y107.266 E4.62009
G1 X93.739 Y106.990 E4.63421
G1 X93.300 Y106.570 E4.65442
G1 X92.692 Y105.886 E4.68487
G1 X92.191 Y105.204 E4.71301
G1 X91.876 Y104.696 E4.73288
G1 X91.674 Y104.329 E4.74680
G1 X91.318 Y103.561 E4.77499
G1 X91.037 Y102.779 E4.80262
G1 X90.808 Y101.886 E4.83327
G1 X91.100 Y101.568 F7800.000
G1 X92.022 Y103.338 F7800.000
G1 X96.653 Y107.969 E5.18190 F1351.842
G1 X97.994 Y108.405 E5.25692
G1 X91.592 Y102.003 E5.73881
G1 X91.399 Y100.905 E5.79815
G1 X99.090 Y108.596 E6.37706
G1 X100.050 Y108.650 E6.42823
G1 X91.356 Y99.957 E7.08261
G1 X91.402 Y99.097 E7.12843
G1 X100.902 Y108.597 E7.84355
G1 X101.689 Y108.479 E7.88592
G1 X91.519 Y98.309 E8.65150
G1 X91.699 Y97.584 E8.69127
G1 X96.244 Y102.129 E9.03341
G1 X95.752 Y100.731 F7800.000
G1 X91.929 Y96.908 E9.32123 F1351.842
G1 X92.200 Y96.274 E9.35794
G1 X95.692 Y99.765 E9.62079
G1 X95.696 Y98.865 E9.66873
G1 X92.515 Y95.683 E9.90823
G1 X92.860 Y95.123 E9.94325
G1 X96.018 Y98.281 E10.18097
G1 X96.347 Y97.705 E10.21630
G1 X93.244 Y94.602 E10.44986
G1 X93.667 Y94.120 E10.48400
G1 X96.733 Y97.186 E10.71481
G1 X97.184 Y96.731 E10.74889
G1 X94.120 Y93.668 E10.97950
G1 X94.605 Y93.247 E11.01366
G1 X97.703 Y96.345 E11.24686
G1 X98.297 Y96.034 E11.28256
G1 X95.124 Y92.861 E11.52142
G1 X95.682 Y92.514 E11.55640
G1 X98.982 Y95.813 E11.80480
G1 X99.766 Y95.692 E11.84702
G1 X96.277 Y92.203 E12.10968
G1 X96.907 Y91.928 E12.14629
G1 X100.727 Y95.748 E12.43378
G1 X102.139 Y96.255 F7800.000
G1 X97.584 Y91.700 E12.77665 F1351.842
G1 X98.313 Y91.524 E12.81657
G1 X108.483 Y101.693 E13.58208
G1 X108.306 Y102.421 E13.62197
G1 X103.748 Y97.863 E13.96508
G1 X104.248 Y99.269 F7800.000
G1 X108.071 Y103.092 E14.25284 F1351.842
G1 X107.797 Y103.723 E14.28946
G1 X104.309 Y100.235 E14.55202
G1 X104.193 Y101.024 E14.59447
G1 X107.487 Y104.319 E14.84245
G1 X107.138 Y104.875 E14.87740
G1 X103.966 Y101.703 E15.11620
G1 X103.650 Y102.292 E15.15178
G1 X106.756 Y105.398 E15.38560
G1 X106.335 Y105.882 E15.41976
G1 X103.271 Y102.818 E15.65041
G1 X102.816 Y103.269 E15.68449
G1 X105.881 Y106.334 E15.91521
G1 X105.394 Y106.752 E15.94938
G1 X102.295 Y103.653 E16.18265
G1 X101.703 Y103.966 E16.21830
G1 X104.880 Y107.143 E16.45742
G1 X104.318 Y107.487 E16.49247
G1 X101.025 Y104.194 E16.74032
G1 X100.231 Y104.305 E16.78301
G1 X103.725 Y107.799 E17.04601
G1 X103.090 Y108.069 E17.08274
G1 X99.426 Y104.405 E17.35858
G1 X97.863 Y103.748 F7800.000
G1 X102.418 Y108.302 E17.70141 F1351.842
G1 F1800.000 E16.70141
G92 E0
G1 X94.075 Y106.296 F7800.000
G1 E1.00000 F1800.000
G1 X93.779 Y106.000 E1.02229 F1351.842
G1 F1800.000 E0.02229
G92 E0
G1 X108.601 Y100.906 F7800.000
G1 E1.00000 F1800.000
G1 X99.096 Y91.402 E1.71547 F1351.842
G1 X99.949 Y91.348 E1.76092
G1 X108.650 Y100.050 E2.41593
G1 X108.602 Y99.097 E2.46675
G1 X100.908 Y91.403 E3.04591
G1 X102.006 Y91.596 E3.10526
G1 X108.405 Y97.994 E3.58691
G1 X107.984 Y96.668 E3.66096
G1 X103.334 Y92.017 E4.01104
G1 F1800.000 E3.01104
G92 E0
G1 X105.926 Y93.705 F7800.000
G1 E1.00000 F1800.000
G1 X106.256 Y94.034 E1.02480 F1351.842
G1 F1800.000 E0.02480
G92 E0
G1 Z1.300 F7800.000
G1 X102.873 Y97.238 F7800.000
G1 E1.00000 F1800.000
G1 X103.169 Y97.582 E1.01510 F600.000
G1 X103.372 Y97.874 E1.02694
G1 X103.548 Y98.182 E1.03874
G1 X103.695 Y98.504 E1.05049
G1 X103.812 Y98.834 E1.06214
G1 X103.899 Y99.168 E1.07363
G1 X103.973 Y99.670 E1.09051
G1 X103.987 Y100.007 E1.10172
G1 X103.954 Y100.510 E1.11847
G1 X103.896 Y100.846 E1.12981
G1 X103.808 Y101.182 E1.14138
G1 X103.688 Y101.515 E1.15317
G1 X103.537 Y101.840 E1.16508
G1 X103.258 Y102.298 E1.18293
G1 X103.037 Y102.583 E1.19493
G1 X102.790 Y102.848 E1.20697
G1 X102.515 Y103.094 E1.21921
G1 X102.237 Y103.300 E1.23073
G1 X101.927 Y103.490 E1.24283
G1 X101.451 Y103.713 E1.26031
G1 X101.126 Y103.824 E1.27172
G1 X100.801 Y103.905 E1.28288
G1 X100.467 Y103.959 E1.29412
G1 X100.000 Y103.987 E1.30969
G1 X99.649 Y103.971 E1.32136
G1 X99.155 Y103.896 E1.33799
G1 X98.818 Y103.807 E1.34957
G1 X98.484 Y103.687 E1.36138
G1 X98.159 Y103.536 E1.37330
G1 X97.700 Y103.257 E1.39117
G1 X97.415 Y103.035 E1.40318
G1 X97.151 Y102.789 E1.41520
G1 X96.910 Y102.519 E1.42723
G1 X96.692 Y102.225 E1.43940
G1 X96.428 Y101.770 E1.45689
G1 X96.287 Y101.451 E1.46849
G1 X96.176 Y101.129 E1.47984
G1 X96.093 Y100.795 E1.49127
G1 X96.039 Y100.457 E1.50267
G1 X96.013 Y100.000 E1.51789
G1 X96.028 Y99.648 E1.52958
G1 X96.107 Y99.138 E1.54675
G1 X96.198 Y98.799 E1.55842
G1 X96.384 Y98.301 E1.57613
G1 X96.108 Y98.301 E1.58533
G1 X97.181 Y97.181 E1.63692
G1 X97.568 Y96.841 E1.65405
G1 X97.851 Y96.643 E1.66556
G1 X98.155 Y96.466 E1.67724
G1 X98.475 Y96.317 E1.68900
G1 X98.978 Y96.147 E1.70666
G1 X99.326 Y96.071 E1.71849
G1 X99.679 Y96.027 E1.73031
G1 X100.031 Y96.014 E1.74205
G1 X100.381 Y96.032 E1.75370
G1 X100.724 Y96.080 E1.76521
G1 X101.055 Y96.156 E1.77651
G1 X101.530 Y96.319 E1.79321
G1 X101.988 Y96.545 E1.81020
G1 X102.280 Y96.730 E1.82169
G1 X102.559 Y96.943 E1.83338
G1 X102.832 Y97.195 E1.84571
G1 X102.537 Y97.465 F7800.000
G1 X102.752 Y97.700 E1.85630 F600.000
G1 X102.946 Y97.954 E1.86693
G1 X103.192 Y98.365 E1.88287
G1 X103.324 Y98.654 E1.89344
G1 X103.430 Y98.951 E1.90392
G1 X103.508 Y99.252 E1.91426
G1 X103.559 Y99.554 E1.92444
G1 X103.587 Y100.003 E1.93940
G1 X103.558 Y100.458 E1.95459
G1 X103.505 Y100.761 E1.96480
G1 X103.426 Y101.063 E1.97519
G1 X103.318 Y101.363 E1.98580
G1 X103.182 Y101.655 E1.99651
G1 X103.021 Y101.934 E2.00722
G1 X102.834 Y102.198 E2.01798
G1 X102.623 Y102.446 E2.02879
G1 X102.391 Y102.674 E2.03962
G1 X102.009 Y102.971 E2.05571
G1 X101.734 Y103.140 E2.06646
G1 X101.450 Y103.280 E2.07699
G1 X101.160 Y103.394 E2.08736
G1 X100.867 Y103.480 E2.09751
G1 X100.575 Y103.540 E2.10744
G1 X100.133 Y103.584 E2.12219
G1 X99.688 Y103.573 E2.13701
G1 X99.393 Y103.535 E2.14690
G1 X99.088 Y103.469 E2.15726
G1 X98.786 Y103.375 E2.16779
G1 X98.344 Y103.181 E2.18385
G1 X98.065 Y103.020 E2.19455
G1 X97.801 Y102.833 E2.20532
G1 X97.553 Y102.622 E2.21613
G1 X97.326 Y102.390 E2.22696
G1 X97.121 Y102.138 E2.23775
G1 X96.786 Y101.593 E2.25904
G1 X96.659 Y101.306 E2.26947
G1 X96.560 Y101.015 E2.27970
G1 X96.485 Y100.715 E2.28996
G1 X96.437 Y100.411 E2.30023
G1 X96.416 Y99.846 E2.31903
G1 X96.498 Y99.225 E2.33985
G1 X96.580 Y98.920 E2.35035
G1 X96.688 Y98.623 E2.36086
G1 X96.822 Y98.337 E2.37137
G1 X97.063 Y97.901 E2.38795
G1 X97.045 Y97.901 E2.38852
G1 X97.464 Y97.464 E2.40863
G1 X97.693 Y97.254 E2.41897
G1 X97.937 Y97.067 E2.42921
G1 X98.201 Y96.898 E2.43964
G1 X98.628 Y96.687 E2.45549
G1 X98.928 Y96.578 E2.46608
G1 X99.394 Y96.466 E2.48202
G1 X99.711 Y96.426 E2.49266
G1 X100.028 Y96.414 E2.50322
G1 X100.498 Y96.449 E2.51888
G1 X100.801 Y96.505 E2.52915
G1 X101.235 Y96.633 E2.54419
G1 X101.653 Y96.817 E2.55937
G1 X101.921 Y96.972 E2.56967
G1 X102.178 Y97.151 E2.58010
G1 X102.493 Y97.424 E2.59396
G1 X102.845 Y97.385 F7800.000
G1 F1800.000 E1.59396
G92 E0
G1 X108.762 Y101.984 F7800.000
G1 E1.00000 F1800.000
G1 X108.502 Y102.904 E1.03180 F600.000
G1 X108.217 Y103.633 E1.05782
G1 X107.863 Y104.345 E1.08426
G1 X107.554 Y104.862 E1.10431
G1 X107.328 Y105.198 E1.11777
G1 X106.828 Y105.839 E1.14480
G1 X106.417 Y106.287 E1.16503
G1 X106.120 Y106.577 E1.17882
G1 X105.503 Y107.101 E1.20578
G1 X104.841 Y107.568 E1.23270
G1 X104.161 Y107.962 E1.25887
G1 X103.778 Y108.151 E1.27304
G1 X103.224 Y108.385 E1.29305
G1 X102.472 Y108.637 E1.31943
G1 X101.531 Y108.853 E1.35155
G1 X100.784 Y108.950 E1.37658
G1 X100.242 Y108.981 E1.39466
G1 X99.723 Y108.980 E1.41191
G1 X98.961 Y108.924 E1.43732
G1 X98.020 Y108.763 E1.46909
G1 X97.097 Y108.502 E1.50097
G1 X96.367 Y108.217 E1.52705
G1 X96.008 Y108.048 E1.54025
G1 X95.479 Y107.763 E1.56023
G1 X94.800 Y107.326 E1.58709
G1 X94.159 Y106.826 E1.61414
G1 X93.705 Y106.410 E1.63460
G1 X93.423 Y106.120 E1.64806
G1 X92.896 Y105.500 E1.67512
G1 X92.431 Y104.839 E1.70201
G1 X92.031 Y104.147 E1.72860
G1 X91.848 Y103.775 E1.74237
G1 X91.614 Y103.222 E1.76234
G1 X91.479 Y102.848 E1.77557
G1 X91.311 Y102.284 E1.79515
G1 X91.148 Y101.534 E1.82069
G1 X91.050 Y100.784 E1.84584
G1 X91.018 Y100.212 E1.86490
G1 X91.018 Y99.814 E1.87813
G1 X91.090 Y98.850 E1.91028
G1 X91.224 Y98.078 E1.93633
G1 X91.316 Y97.696 E1.94942
G1 X91.487 Y97.127 E1.96916
G1 X91.773 Y96.389 E1.99549
G1 X91.940 Y96.030 E2.00866
G1 X92.218 Y95.511 E2.02824
G1 X92.644 Y94.842 E2.05461
G1 X93.121 Y94.222 E2.08064
G1 X93.779 Y93.519 E2.11268
G1 X94.487 Y92.906 E2.14382
G1 X95.112 Y92.462 E2.16932
G1 X95.612 Y92.161 E2.18872
G1 X95.958 Y91.977 E2.20177
G1 X96.680 Y91.652 E2.22809
G1 X97.243 Y91.450 E2.24798
G1 X97.626 Y91.336 E2.26128
G1 X98.411 Y91.158 E2.28804
G1 X99.201 Y91.052 E2.31456
G1 X99.599 Y91.025 E2.32784
G1 X100.196 Y91.019 E2.34769
G1 X100.992 Y91.071 E2.37421
G1 X101.384 Y91.124 E2.38738
G1 X101.962 Y91.233 E2.40694
G1 X102.707 Y91.434 E2.43260
G1 X103.607 Y91.773 E2.46460
G1 X104.444 Y92.193 E2.49575
G1 X105.094 Y92.600 E2.52124
G1 X105.409 Y92.827 E2.53415
G1 X105.866 Y93.196 E2.55370
G1 X106.442 Y93.738 E2.58001
G1 X106.844 Y94.181 E2.59990
G1 X107.096 Y94.491 E2.61320
G1 X107.561 Y95.148 E2.63997
G1 X107.768 Y95.487 E2.65318
G1 X108.052 Y96.016 E2.67313
G1 X108.373 Y96.745 E2.69964
G1 X108.629 Y97.500 E2.72614
G1 X108.775 Y98.074 E2.74586
G1 X108.851 Y98.458 E2.75888
G1 X108.966 Y99.417 E2.79100
G1 X108.980 Y100.275 E2.81953
G1 X108.925 Y101.030 E2.84473
G1 X108.775 Y101.926 E2.87492
G1 X109.152 Y102.073 F7800.000
G1 X109.002 Y102.649 E2.89474 F600.000
G1 X108.880 Y103.033 E2.90814
G1 X108.583 Y103.794 E2.93532
G1 X108.214 Y104.538 E2.96294
G1 X107.891 Y105.079 E2.98389
G1 X107.654 Y105.429 E2.99794
G1 X107.132 Y106.099 E3.02617
G1 X106.701 Y106.569 E3.04739
G1 X106.394 Y106.868 E3.06163
G1 X105.748 Y107.418 E3.08988
G1 X105.057 Y107.905 E3.11799
G1 X104.343 Y108.318 E3.14541
G1 X103.949 Y108.513 E3.16004
G1 X103.368 Y108.759 E3.18103
G1 X102.582 Y109.022 E3.20858
G1 X102.188 Y109.125 E3.22214
G1 X101.599 Y109.247 E3.24215
G1 X100.817 Y109.348 E3.26837
G1 X100.253 Y109.381 E3.28717
G1 X99.711 Y109.380 E3.30520
G1 X98.913 Y109.321 E3.33181
G1 X98.507 Y109.264 E3.34544
G1 X97.931 Y109.153 E3.36493
G1 X97.353 Y109.003 E3.38481
G1 X96.968 Y108.881 E3.39824
G1 X96.205 Y108.582 E3.42548
G1 X95.830 Y108.406 E3.43927
G1 X95.278 Y108.109 E3.46013
G1 X94.568 Y107.652 E3.48819
G1 X93.898 Y107.130 E3.51645
G1 X93.427 Y106.697 E3.53774
G1 X93.130 Y106.393 E3.55188
G1 X92.580 Y105.745 E3.58015
G1 X92.093 Y105.055 E3.60823
G1 X91.674 Y104.329 E3.63609
G1 X91.486 Y103.946 E3.65031
G1 X91.241 Y103.366 E3.67124
G1 X91.100 Y102.975 E3.68506
G1 X90.924 Y102.386 E3.70551
G1 X90.754 Y101.602 E3.73218
G1 X90.651 Y100.816 E3.75855
G1 X90.618 Y100.221 E3.77838
G1 X90.618 Y99.806 E3.79219
G1 X90.650 Y99.203 E3.81228
G1 X90.693 Y98.799 E3.82578
G1 X90.833 Y97.993 E3.85299
G1 X90.930 Y97.593 E3.86668
G1 X91.108 Y97.000 E3.88728
G1 X91.407 Y96.229 E3.91479
G1 X91.675 Y95.670 E3.93540
G1 X91.872 Y95.309 E3.94907
G1 X92.316 Y94.613 E3.97654
G1 X92.814 Y93.965 E4.00373
G1 X93.082 Y93.660 E4.01721
G1 X93.502 Y93.230 E4.03722
G1 X94.242 Y92.590 E4.06975
G1 X94.895 Y92.127 E4.09637
G1 X95.416 Y91.812 E4.11664
G1 X95.778 Y91.620 E4.13027
G1 X96.532 Y91.281 E4.15776
G1 X97.120 Y91.069 E4.17853
G1 X97.520 Y90.950 E4.19243
G1 X98.338 Y90.765 E4.22030
G1 X99.165 Y90.654 E4.24808
G1 X99.582 Y90.626 E4.26196
G1 X100.205 Y90.619 E4.28268
G1 X101.036 Y90.674 E4.31039
G1 X101.446 Y90.729 E4.32415
G1 X102.049 Y90.843 E4.34457
G1 X102.828 Y91.053 E4.37138
G1 X103.210 Y91.183 E4.38482
G1 X103.768 Y91.406 E4.40481
G1 X104.642 Y91.845 E4.43735
G1 X105.321 Y92.271 E4.46398
G1 X105.649 Y92.508 E4.47746
G1 X106.127 Y92.893 E4.49788
G1 X106.729 Y93.460 E4.52536
G1 X107.149 Y93.922 E4.54614
G1 X107.412 Y94.246 E4.56003
G1 X107.896 Y94.930 E4.58791
G1 X108.316 Y95.653 E4.61569
G1 X108.587 Y96.216 E4.63648
G1 X108.746 Y96.600 E4.65030
G1 X109.013 Y97.388 E4.67800
G1 X109.166 Y97.988 E4.69859
G1 X109.245 Y98.389 E4.71219
G1 X109.330 Y98.989 E4.73234
G1 X109.365 Y99.391 E4.74575
G1 X109.380 Y100.287 E4.77557
G1 X109.322 Y101.077 E4.80188
G1 X109.165 Y102.014 E4.83350
G1 X108.770 Y102.190 F7800.000
G1 X108.606 Y100.787 F7800.000
G1 X107.853 Y100.988 E4.87422 F1060.605
G1 X107.290 Y103.091 E4.98794
G1 X107.835 Y103.636 E5.02825
G1 F1800.000 E4.02825
G92 E0
G1 X102.249 Y103.693 F7800.000
G1 E1.00000 F1800.000
G1 X102.034 Y104.499 E1.04359 F1060.605
G1 X102.803 Y105.269 E1.10045
G1 X102.240 Y107.371 E1.21416
G1 X101.189 Y107.653 E1.27102
G1 X100.937 Y108.591 E1.32176
G1 F1800.000 E0.32176
G92 E0
G1 X99.616 Y104.303 F7800.000
G1 E1.00000 F1800.000
G1 X99.769 Y104.456 E1.01125 F1060.605
G1 X99.205 Y106.558 E1.12497
G1 X98.154 Y106.840 E1.18182
G1 X97.753 Y108.336 E1.26278
G1 X100.276 Y108.631 E1.39549
G1 X100.582 Y107.490 E1.45719
G1 X99.812 Y106.721 E1.51405
G1 X100.376 Y104.618 E1.62776
G1 X101.427 Y104.337 E1.68462
G1 X101.503 Y104.056 E1.69979
G1 F1800.000 E0.69979
G92 E0
G1 X97.755 Y103.694 F7800.000
G1 E1.00000 F1800.000
G1 X97.341 Y103.805 E1.02240 F1060.605
G1 X96.778 Y105.908 E1.13611
G1 X97.547 Y106.677 E1.19297
G1 X97.152 Y108.151 E1.27271
G1 X94.872 Y106.952 E1.40733
G1 X95.120 Y106.027 E1.45736
G1 X96.171 Y105.745 E1.51422
G1 X96.734 Y103.642 E1.62793
G1 X95.965 Y102.873 E1.68479
G1 X96.187 Y102.044 E1.72965
G1 X95.801 Y101.053 F7800.000
G1 X95.358 Y102.710 E1.81930 F1060.605
G1 X94.306 Y102.992 E1.87615
G1 X93.743 Y105.094 E1.98987
G1 X94.513 Y105.864 E2.04672
G1 X94.337 Y106.518 E2.08211
G1 X92.947 Y104.983 E2.19034
G1 X93.136 Y104.932 E2.20058
G1 X93.700 Y102.829 E2.31429
G1 X92.930 Y102.060 E2.37115
G1 X93.493 Y99.957 E2.48486
G1 X94.545 Y99.676 E2.54172
G1 X95.108 Y97.573 E2.65543
G1 X94.338 Y96.804 E2.71229
G1 X94.902 Y94.701 E2.82600
G1 X95.953 Y94.420 E2.88286
G1 X96.516 Y92.317 E2.99657
G1 X96.363 Y92.165 E3.00786
G1 X98.355 Y91.524 E3.11715
G1 X98.174 Y92.198 E3.15362
G1 X97.123 Y92.480 E3.21047
G1 X96.560 Y94.582 E3.32419
G1 X97.329 Y95.352 E3.38104
G1 X96.887 Y97.004 E3.47038
G1 X96.341 Y97.568 F7800.000
G1 X95.715 Y97.736 E3.50425 F1060.605
G1 X95.537 Y98.400 E3.54016
G1 X95.472 Y98.642 F7800.000
G1 X95.151 Y99.838 E3.60487 F1060.605
G1 X95.690 Y100.379 E3.64474
G1 F1800.000 E2.64474
G92 E0
G1 X91.615 Y102.087 F7800.000
G1 E1.00000 F1800.000
G1 X92.323 Y101.897 E1.03832 F1060.605
G1 X92.886 Y99.795 E1.15203
G1 X92.117 Y99.025 E1.20889
G1 X92.680 Y96.923 E1.32260
G1 X93.731 Y96.641 E1.37946
G1 X94.295 Y94.539 E1.49317
G1 X93.769 Y94.013 E1.53203
G1 F1800.000 E0.53203
G92 E0
G1 X92.013 Y96.700 F7800.000
G1 E1.00000 F1800.000
G1 X92.073 Y96.760 E1.00448 F1060.605
G1 X91.510 Y98.863 E1.11820
G1 X91.434 Y98.883 E1.12233
G1 F1800.000 E0.12233
G92 E0
G1 X97.718 Y96.327 F7800.000
G1 E1.00000 F1800.000
G1 X97.936 Y95.515 E1.04395 F1060.605
G1 X98.987 Y95.233 E1.10081
G1 X99.551 Y93.131 E1.21452
G1 X98.781 Y92.361 E1.27138
G1 X99.035 Y91.414 E1.32259
G1 X101.611 Y91.511 E1.45727
G1 X101.209 Y93.011 E1.53843
G1 X100.158 Y93.293 E1.59528
G1 X99.594 Y95.396 E1.70900
G1 X99.877 Y95.678 E1.72989
G1 F1800.000 E0.72989
G92 E0
G1 X101.844 Y96.094 F7800.000
G1 E1.00000 F1800.000
G1 X102.022 Y96.046 E1.00962 F1060.605
G1 X102.585 Y93.944 E1.12334
G1 X101.816 Y93.174 E1.18019
G1 X102.221 Y91.661 E1.26202
G1 X104.555 Y92.663 E1.39469
G1 X104.243 Y93.825 E1.45750
G1 X103.192 Y94.106 E1.51435
G1 X102.629 Y96.209 E1.62807
G1 X103.398 Y96.978 E1.68492
G1 X103.330 Y97.237 E1.69890
G1 X103.793 Y97.927 F7800.000
G1 X104.005 Y97.141 E1.74145 F1060.605
G1 X105.057 Y96.859 E1.79830
G1 X105.620 Y94.757 E1.91202
G1 X104.850 Y93.987 E1.96887
G1 X105.106 Y93.032 E2.02056
G1 X106.855 Y94.751 E2.14867
G1 X106.227 Y94.919 E2.18265
G1 X105.663 Y97.022 E2.29636
G1 X106.433 Y97.791 E2.35322
G1 X105.870 Y99.894 E2.46693
G1 X104.818 Y100.175 E2.52379
G1 X104.255 Y102.278 E2.63750
G1 X105.025 Y103.047 E2.69436
G1 X104.461 Y105.150 E2.80807
G1 X103.410 Y105.431 E2.86493
G1 X102.847 Y107.534 E2.97864
G1 X103.296 Y107.983 E3.01181
G1 X105.738 Y106.453 E3.16237
G1 X105.838 Y106.082 E3.18246
G1 X105.068 Y105.312 E3.23932
G1 X105.632 Y103.210 E3.35304
G1 X106.683 Y102.928 E3.40989
G1 X107.246 Y100.826 E3.52361
G1 X106.477 Y100.056 E3.58046
G1 X107.040 Y97.954 E3.69418
G1 X108.091 Y97.672 E3.75104
G1 X108.197 Y97.277 E3.77244
G1 F1800.000 E2.77244
G92 E0
G1 Z1.500 F7800.000
G1 X103.793 Y98.774 F7800.000
G1 E1.00000 F1800.000
G1 X103.899 Y99.168 E1.01359 F600.000
G1 X103.956 Y99.504 E1.02492
G1 X103.987 Y100.007 E1.04168
G1 X103.973 Y100.335 E1.05261
G1 X103.929 Y100.679 E1.06413
G1 X103.808 Y101.182 E1.08134
G1 X103.688 Y101.515 E1.09313
G1 X103.537 Y101.840 E1.10503
G1 X103.358 Y102.149 E1.11692
G1 X103.150 Y102.443 E1.12889
G1 X102.916 Y102.719 E1.14091
G1 X102.657 Y102.972 E1.15295
G1 X102.515 Y103.094 E1.15918
G1 X102.081 Y103.400 E1.17686
G1 X101.770 Y103.572 E1.18866
G1 X101.289 Y103.772 E1.20600
G1 X100.964 Y103.868 E1.21729
G1 X100.638 Y103.935 E1.22833
G1 X100.298 Y103.975 E1.23974
G1 X99.829 Y103.983 E1.25532
G1 X99.329 Y103.930 E1.27205
G1 X98.987 Y103.856 E1.28370
G1 X98.651 Y103.751 E1.29541
G1 X98.319 Y103.615 E1.30733
G1 X97.850 Y103.357 E1.32515
G1 X97.555 Y103.149 E1.33713
G1 X97.280 Y102.915 E1.34914
G1 X97.027 Y102.656 E1.36118
G1 X96.799 Y102.377 E1.37317
G1 X96.513 Y101.933 E1.39075
G1 X96.354 Y101.612 E1.40266
G1 X96.228 Y101.290 E1.41415
G1 X96.131 Y100.965 E1.42544
G1 X96.062 Y100.626 E1.43693
G1 X96.024 Y100.290 E1.44819
G1 X96.016 Y99.828 E1.46354
G1 X96.107 Y99.138 E1.48670
G1 X96.255 Y98.633 E1.50419
G1 X96.390 Y98.309 E1.51589
G1 X96.552 Y97.998 E1.52754
G1 X96.740 Y97.705 E1.53912
G1 X97.063 Y97.304 E1.55626
G1 X97.305 Y97.063 E1.56762
G1 X97.707 Y96.739 E1.58477
G1 X98.001 Y96.551 E1.59637
G1 X98.314 Y96.388 E1.60812
G1 X98.640 Y96.253 E1.61987
G1 X98.978 Y96.147 E1.63166
G1 X99.326 Y96.071 E1.64348
G1 X99.679 Y96.027 E1.65531
G1 X100.207 Y96.019 E1.67289
G1 X100.553 Y96.053 E1.68446
G1 X100.891 Y96.115 E1.69587
G1 X101.373 Y96.258 E1.71259
G1 X101.684 Y96.387 E1.72380
G1 X102.135 Y96.634 E1.74091
G1 X102.421 Y96.833 E1.75250
G1 X102.692 Y97.060 E1.76424
G1 X102.942 Y97.310 E1.77600
G1 X103.274 Y97.726 E1.79371
G1 X103.463 Y98.026 E1.80551
G1 X103.626 Y98.342 E1.81733
G1 X103.774 Y98.717 E1.83073
G1 X103.381 Y98.802 F7800.000
G1 X103.472 Y99.101 E1.84115 F600.000
G1 X103.559 Y99.554 E1.85648
G1 X103.587 Y100.003 E1.87143
G1 X103.574 Y100.306 E1.88152
G1 X103.535 Y100.611 E1.89175
G1 X103.469 Y100.912 E1.90200
G1 X103.375 Y101.214 E1.91251
G1 X103.253 Y101.511 E1.92322
G1 X103.104 Y101.797 E1.93392
G1 X102.931 Y102.068 E1.94463
G1 X102.732 Y102.324 E1.95542
G1 X102.510 Y102.562 E1.96625
G1 X102.265 Y102.781 E1.97714
G1 X102.009 Y102.971 E1.98776
G1 X101.734 Y103.140 E1.99851
G1 X101.305 Y103.341 E2.01424
G1 X101.013 Y103.440 E2.02450
G1 X100.575 Y103.540 E2.03948
G1 X100.267 Y103.576 E2.04976
G1 X99.847 Y103.583 E2.06376
G1 X99.393 Y103.535 E2.07893
G1 X99.088 Y103.469 E2.08930
G1 X98.786 Y103.375 E2.09983
G1 X98.488 Y103.252 E2.11056
G1 X98.203 Y103.104 E2.12125
G1 X97.931 Y102.930 E2.13197
G1 X97.675 Y102.731 E2.14277
G1 X97.437 Y102.509 E2.15359
G1 X97.220 Y102.266 E2.16441
G1 X97.026 Y102.005 E2.17524
G1 X96.861 Y101.735 E2.18575
G1 X96.659 Y101.306 E2.20153
G1 X96.520 Y100.868 E2.21681
G1 X96.458 Y100.563 E2.22716
G1 X96.422 Y100.260 E2.23731
G1 X96.416 Y99.846 E2.25109
G1 X96.498 Y99.225 E2.27192
G1 X96.631 Y98.770 E2.28766
G1 X96.752 Y98.479 E2.29818
G1 X96.898 Y98.199 E2.30867
G1 X97.067 Y97.935 E2.31909
G1 X97.358 Y97.575 E2.33451
G1 X97.575 Y97.358 E2.34472
G1 X97.937 Y97.067 E2.36015
G1 X98.201 Y96.898 E2.37058
G1 X98.483 Y96.750 E2.38116
G1 X98.777 Y96.629 E2.39173
G1 X99.081 Y96.534 E2.40233
G1 X99.394 Y96.466 E2.41297
G1 X99.711 Y96.426 E2.42361
G1 X100.186 Y96.419 E2.43943
G1 X100.498 Y96.449 E2.44984
G1 X100.801 Y96.505 E2.46010
G1 X101.235 Y96.633 E2.47515
G1 X101.515 Y96.750 E2.48523
G1 X101.921 Y96.972 E2.50062
G1 X102.178 Y97.151 E2.51105
G1 X102.422 Y97.355 E2.52161
G1 X102.647 Y97.580 E2.53219
G1 X102.851 Y97.825 E2.54281
G1 X103.034 Y98.088 E2.55345
G1 X103.192 Y98.365 E2.56407
G1 X103.359 Y98.746 E2.57790
G1 X103.688 Y98.861 F7800.000
G1 F1800.000 E1.57790
G92 E0
G1 X98.011 Y91.239 F7800.000
G1 E1.00000 F1800.000
G1 X98.803 Y91.097 E1.02677 F600.000
G1 X99.201 Y91.052 E1.04008
G1 X99.798 Y91.019 E1.05998
G1 X100.391 Y91.025 E1.07970
G1 X100.797 Y91.052 E1.09323
G1 X101.579 Y91.156 E1.11945
G1 X102.339 Y91.326 E1.14535
G1 X103.071 Y91.558 E1.17090
G1 X103.945 Y91.929 E1.20248
G1 X104.772 Y92.389 E1.23395
G1 X105.252 Y92.712 E1.25320
G1 X105.563 Y92.946 E1.26616
G1 X106.159 Y93.460 E1.29234
G1 X106.579 Y93.883 E1.31214
G1 X106.844 Y94.181 E1.32542
G1 X107.333 Y94.811 E1.35193
G1 X107.768 Y95.487 E1.37869
G1 X108.138 Y96.196 E1.40527
G1 X108.442 Y96.927 E1.43162
G1 X108.629 Y97.500 E1.45164
G1 X108.731 Y97.883 E1.46484
G1 X108.882 Y98.650 E1.49084
G1 X108.976 Y99.607 E1.52283
G1 X108.973 Y100.461 E1.55122
G1 X108.872 Y101.413 E1.58307
G1 X108.719 Y102.168 E1.60869
G1 X108.437 Y103.087 E1.64067
G1 X108.217 Y103.633 E1.66024
G1 X108.049 Y103.991 E1.67340
G1 X107.661 Y104.692 E1.70004
G1 X107.328 Y105.198 E1.72019
G1 X107.085 Y105.523 E1.73369
G1 X106.556 Y106.142 E1.76079
G1 X105.972 Y106.712 E1.78791
G1 X105.340 Y107.224 E1.81495
G1 X105.010 Y107.457 E1.82841
G1 X104.498 Y107.777 E1.84849
G1 X103.778 Y108.151 E1.87546
G1 X103.037 Y108.455 E1.90211
G1 X102.661 Y108.581 E1.91530
G1 X102.095 Y108.736 E1.93482
G1 X101.157 Y108.909 E1.96652
G1 X100.384 Y108.976 E1.99234
G1 X99.534 Y108.972 E2.02062
G1 X98.961 Y108.924 E2.03974
G1 X98.568 Y108.869 E2.05293
G1 X97.651 Y108.671 E2.08415
G1 X96.914 Y108.437 E2.10987
G1 X96.367 Y108.217 E2.12947
G1 X96.008 Y108.048 E2.14268
G1 X95.306 Y107.660 E2.16934
G1 X94.636 Y107.207 E2.19626
G1 X94.008 Y106.694 E2.22323
G1 X93.423 Y106.120 E2.25048
G1 X93.022 Y105.659 E2.27080
G1 X92.774 Y105.338 E2.28428
G1 X92.431 Y104.839 E2.30443
G1 X92.222 Y104.496 E2.31779
G1 X91.848 Y103.775 E2.34479
G1 X91.544 Y103.035 E2.37139
G1 X91.419 Y102.661 E2.38454
G1 X91.264 Y102.097 E2.40399
G1 X91.091 Y101.162 E2.43561
G1 X91.018 Y100.212 E2.46731
G1 X91.034 Y99.430 E2.49332
G1 X91.070 Y98.989 E2.50803
G1 X91.148 Y98.464 E2.52569
G1 X91.316 Y97.696 E2.55184
G1 X91.551 Y96.944 E2.57803
G1 X91.773 Y96.389 E2.59791
G1 X91.940 Y96.030 E2.61108
G1 X92.218 Y95.511 E2.63066
G1 X92.426 Y95.168 E2.64402
G1 X92.876 Y94.526 E2.67008
G1 X93.247 Y94.074 E2.68953
G1 X93.511 Y93.787 E2.70250
G1 X94.194 Y93.144 E2.73371
G1 X94.794 Y92.679 E2.75895
G1 X95.612 Y92.161 E2.79115
G1 X96.315 Y91.807 E2.81732
G1 X97.053 Y91.513 E2.84376
G1 X97.953 Y91.253 E2.87491
G1 X97.925 Y90.849 F7800.000
G1 X98.750 Y90.700 E2.90279 F600.000
G1 X99.165 Y90.654 E2.91669
G1 X99.790 Y90.619 E2.93748
G1 X100.411 Y90.626 E2.95815
G1 X100.830 Y90.653 E2.97212
G1 X101.649 Y90.762 E2.99959
G1 X102.443 Y90.940 E3.02665
G1 X103.210 Y91.183 E3.05342
G1 X103.591 Y91.331 E3.06703
G1 X104.121 Y91.570 E3.08633
G1 X104.642 Y91.845 E3.10596
G1 X104.984 Y92.050 E3.11922
G1 X105.486 Y92.387 E3.13932
G1 X105.811 Y92.632 E3.15285
G1 X106.434 Y93.169 E3.18020
G1 X106.872 Y93.610 E3.20089
G1 X107.149 Y93.922 E3.21475
G1 X107.661 Y94.581 E3.24253
G1 X108.114 Y95.287 E3.27040
G1 X108.501 Y96.026 E3.29817
G1 X108.819 Y96.793 E3.32576
G1 X109.013 Y97.388 E3.34661
G1 X109.120 Y97.788 E3.36037
G1 X109.278 Y98.590 E3.38754
G1 X109.330 Y98.989 E3.40095
G1 X109.376 Y99.592 E3.42104
G1 X109.372 Y100.481 E3.45063
G1 X109.322 Y101.077 E3.47049
G1 X109.267 Y101.478 E3.48398
G1 X109.107 Y102.265 E3.51068
G1 X109.002 Y102.649 E3.52393
G1 X108.813 Y103.225 E3.54408
G1 X108.583 Y103.794 E3.56452
G1 X108.407 Y104.169 E3.57827
G1 X108.002 Y104.901 E3.60609
G1 X107.654 Y105.429 E3.62714
G1 X107.401 Y105.769 E3.64124
G1 X106.848 Y106.416 E3.66954
G1 X106.238 Y107.010 E3.69787
G1 X105.578 Y107.546 E3.72612
G1 X105.233 Y107.789 E3.74018
G1 X104.698 Y108.123 E3.76115
G1 X103.949 Y108.513 E3.78924
G1 X103.172 Y108.832 E3.81716
G1 X102.779 Y108.963 E3.83094
G1 X102.188 Y109.125 E3.85133
G1 X101.795 Y109.211 E3.86471
G1 X101.209 Y109.306 E3.88445
G1 X100.404 Y109.375 E3.91132
G1 X99.513 Y109.371 E3.94096
G1 X98.913 Y109.321 E3.96100
G1 X98.507 Y109.264 E3.97463
G1 X97.546 Y109.057 E4.00732
G1 X96.776 Y108.813 E4.03419
G1 X96.205 Y108.582 E4.05466
G1 X95.830 Y108.406 E4.06845
G1 X95.097 Y108.001 E4.09630
G1 X94.397 Y107.527 E4.12442
G1 X93.739 Y106.990 E4.15267
G1 X93.130 Y106.393 E4.18105
G1 X92.712 Y105.911 E4.20227
G1 X92.452 Y105.576 E4.21636
G1 X92.093 Y105.055 E4.23741
G1 X91.876 Y104.696 E4.25136
G1 X91.486 Y103.946 E4.27949
G1 X91.168 Y103.171 E4.30735
G1 X91.037 Y102.779 E4.32109
G1 X90.875 Y102.190 E4.34141
G1 X90.754 Y101.602 E4.36136
G1 X90.695 Y101.214 E4.37443
G1 X90.651 Y100.816 E4.38774
G1 X90.618 Y100.221 E4.40757
G1 X90.635 Y99.404 E4.43474
G1 X90.669 Y99.001 E4.44820
G1 X90.754 Y98.395 E4.46854
G1 X90.930 Y97.593 E4.49586
G1 X91.176 Y96.806 E4.52329
G1 X91.407 Y96.229 E4.54397
G1 X91.581 Y95.854 E4.55772
G1 X91.872 Y95.309 E4.57825
G1 X92.088 Y94.954 E4.59206
G1 X92.559 Y94.282 E4.61936
G1 X92.947 Y93.811 E4.63967
G1 X93.222 Y93.510 E4.65322
G1 X93.936 Y92.839 E4.68581
G1 X94.562 Y92.353 E4.71218
G1 X94.895 Y92.127 E4.72556
G1 X95.416 Y91.812 E4.74582
G1 X96.151 Y91.442 E4.77316
G1 X96.922 Y91.136 E4.80078
G1 X97.319 Y91.007 E4.81466
G1 X97.867 Y90.863 E4.83349
G1 X98.191 Y91.147 F7800.000
G1 F1800.000 E3.83349
G92 E0
G1 X101.917 Y91.583 F7800.000
G1 E1.00000 F1800.000
G1 X101.653 Y92.567 E1.05324 F1054.591
G1 X103.192 Y94.106 E1.16695
G1 X104.243 Y93.825 E1.22381
G1 X105.782 Y95.364 E1.33752
G1 X105.501 Y96.415 E1.39438
G1 X107.040 Y97.954 E1.50809
G1 X108.091 Y97.672 E1.56495
G1 X108.393 Y97.974 E1.58726
G1 F1800.000 E0.58726
G92 E0
G1 X106.855 Y94.751 F7800.000
G1 E1.00000 F1800.000
G1 X106.227 Y94.919 E1.03397 F1054.591
G1 X104.688 Y93.380 E1.14769
G1 X104.833 Y92.839 E1.17697
G1 F1800.000 E0.17697
G92 E0
G1 X102.349 Y96.373 F7800.000
G1 E1.00000 F1800.000
G1 X102.022 Y96.046 E1.02416 F1054.591
G1 X101.850 Y96.092 E1.03344
G1 X100.331 Y95.688 F7800.000
G1 X99.432 Y94.789 E1.09988 F1054.591
G1 X99.713 Y93.737 E1.15674
G1 X98.174 Y92.198 E1.27045
G1 X97.123 Y92.480 E1.32731
G1 X96.670 Y92.027 E1.36077
G1 X98.697 Y91.461 E1.47071
G1 X98.619 Y91.754 E1.48653
G1 X100.158 Y93.293 E1.60025
G1 X101.209 Y93.011 E1.65711
G1 X102.748 Y94.551 E1.77082
G1 X102.466 Y95.602 E1.82768
G1 X104.005 Y97.141 E1.94139
G1 X105.057 Y96.859 E1.99825
G1 X106.596 Y98.398 E2.11196
G1 X106.314 Y99.449 E2.16882
G1 X107.853 Y100.988 E2.28253
G1 X108.606 Y100.787 E2.32326
G1 X107.974 Y103.331 E2.46022
G1 X107.127 Y102.484 E2.52281
G1 X107.409 Y101.433 E2.57967
G1 X105.870 Y99.894 E2.69338
G1 X104.818 Y100.175 E2.75024
G1 X104.308 Y99.666 E2.78791
G1 X104.291 Y100.536 F7800.000
G1 X104.374 Y100.620 E2.79407 F1054.591
G1 X104.092 Y101.671 E2.85092
G1 X105.632 Y103.210 E2.96464
G1 X106.683 Y102.928 E3.02149
G1 X107.692 Y103.937 E3.09604
G1 X106.209 Y106.008 E3.22913
G1 X104.906 Y104.705 E3.32541
G1 X105.187 Y103.654 E3.38226
G1 X103.726 Y102.194 E3.49019
G1 F1800.000 E2.49019
G92 E0
G1 X101.877 Y103.897 F7800.000
G1 E1.00000 F1800.000
G1 X103.410 Y105.431 E1.11332 F1054.591
G1 X104.461 Y105.150 E1.17018
G1 X105.752 Y106.440 E1.26555
G1 X103.605 Y107.848 E1.39966
G1 X102.684 Y106.927 E1.46772
G1 X102.966 Y105.876 E1.52458
G1 X101.427 Y104.337 E1.63829
G1 X100.376 Y104.618 E1.69515
G1 X100.077 Y104.320 E1.71719
G1 X99.099 Y104.229 F7800.000
G1 X99.931 Y105.063 E1.77874 F1054.591
G1 X99.650 Y106.114 E1.83560
G1 X101.189 Y107.653 E1.94932
G1 X102.240 Y107.371 E2.00617
G1 X102.975 Y108.106 E2.06048
G1 X100.607 Y108.611 E2.18699
G1 X100.744 Y108.097 E2.21479
G1 X99.205 Y106.558 E2.32851
G1 X98.154 Y106.840 E2.38537
G1 X96.615 Y105.301 E2.49908
G1 X96.897 Y104.249 E2.55594
G1 X95.358 Y102.710 E2.66965
G1 X94.306 Y102.992 E2.72651
G1 X92.767 Y101.453 E2.84022
G1 X93.049 Y100.402 E2.89708
G1 X91.510 Y98.863 E3.01079
G1 X91.434 Y98.883 E3.01492
G1 X91.891 Y97.023 F7800.000
G1 X92.236 Y97.367 E3.04039 F1054.591
G1 X91.954 Y98.418 E3.09725
G1 X93.493 Y99.957 E3.21096
G1 X94.545 Y99.676 E3.26782
G1 X95.770 Y100.900 E3.35833
G1 X95.981 Y101.597 F7800.000
G1 X95.802 Y102.266 E3.39452 F1054.591
G1 X97.341 Y103.805 E3.50824
G1 X97.755 Y103.694 E3.53061
G1 F1800.000 E2.53061
G92 E0
G1 X95.677 Y99.920 F7800.000
G1 E1.00000 F1800.000
G1 X94.989 Y99.232 E1.05086 F1054.591
G1 X95.271 Y98.180 E1.10771
G1 X93.731 Y96.641 E1.22143
G1 X92.680 Y96.923 E1.27828
G1 X92.154 Y96.396 E1.31718
G1 X93.555 Y94.244 E1.45139
G1 X94.457 Y95.146 E1.51804
G1 X94.176 Y96.197 E1.57490
G1 X95.715 Y97.736 E1.68861
G1 X96.440 Y97.542 E1.72782
G1 X97.315 Y96.616 F7800.000
G1 X97.492 Y95.959 E1.76338 F1054.591
G1 X95.953 Y94.420 E1.87709
G1 X94.902 Y94.701 E1.93395
G1 X93.998 Y93.798 E2.00073
G1 X96.068 Y92.313 E2.13381
G1 X96.679 Y92.924 E2.17894
G1 X96.397 Y93.976 E2.23580
G1 X97.936 Y95.515 E2.34952
G1 X98.987 Y95.233 E2.40637
G1 X99.465 Y95.710 E2.44164
G1 F1800.000 E1.44164
G92 E0
G1 X91.615 Y102.087 F7800.000
G1 E1.00000 F1800.000
G1 X92.323 Y101.897 E1.03832 F1054.591
G1 X93.862 Y103.436 E1.15203
G1 X93.581 Y104.487 E1.20889
G1 X95.120 Y106.027 E1.32260
G1 X96.171 Y105.745 E1.37946
G1 X97.710 Y107.284 E1.49318
G1 X97.450 Y108.253 E1.54559
G1 F1800.000 E0.54559
G92 E0
G1 X94.602 Y106.746 F7800.000
G1 E1.00000 F1800.000
G1 X94.675 Y106.471 E1.01487 F1054.591
G1 X93.136 Y104.932 E1.12858
G1 X92.947 Y104.983 E1.13882
G1 F1800.000 E0.13882
G92 E0
G1 Z1.700 F7800.000
G1 X96.712 Y102.254 F7800.000
G1 E1.00000 F1800.000
G1 X96.513 Y101.933 E1.01256 F600.000
G1 X96.287 Y101.451 E1.03025
G1 X96.176 Y101.129 E1.04160
G1 X95.915 Y100.170 E1.07463
G1 X96.010 Y100.170 E1.07778
G1 X96.028 Y99.648 E1.09515
G1 X96.072 Y99.317 E1.10628
G1 X96.149 Y98.967 E1.11818
G1 X96.318 Y98.470 E1.13566
G1 X96.468 Y98.151 E1.14736
G1 X96.740 Y97.705 E1.16474
G1 X96.951 Y97.432 E1.17622
G1 X97.305 Y97.063 E1.19325
G1 X97.707 Y96.739 E1.21040
G1 X98.155 Y96.466 E1.22785
G1 X98.475 Y96.317 E1.23961
G1 X98.808 Y96.196 E1.25137
G1 X99.151 Y96.105 E1.26319
G1 X99.502 Y96.045 E1.27502
G1 X99.855 Y96.017 E1.28681
G1 X100.207 Y96.019 E1.29851
G1 X100.724 Y96.080 E1.31582
G1 X101.520 Y96.273 E1.34308
G1 X101.520 Y96.315 E1.34447
G1 X101.837 Y96.462 E1.35608
G1 X102.135 Y96.634 E1.36754
G1 X102.559 Y96.943 E1.38498
G1 X102.820 Y97.182 E1.39674
G1 X103.059 Y97.443 E1.40852
G1 X103.274 Y97.726 E1.42033
G1 X103.463 Y98.026 E1.43214
G1 X103.626 Y98.342 E1.44395
G1 X103.758 Y98.668 E1.45564
G1 X103.899 Y99.168 E1.47294
G1 X103.973 Y99.670 E1.48982
G1 X103.987 Y100.007 E1.50103
G1 X103.973 Y100.335 E1.51196
G1 X103.929 Y100.679 E1.52348
G1 X103.808 Y101.182 E1.54068
G1 X103.688 Y101.515 E1.55247
G1 X103.537 Y101.840 E1.56438
G1 X103.358 Y102.149 E1.57627
G1 X103.150 Y102.443 E1.58823
G1 X102.916 Y102.719 E1.60026
G1 X102.657 Y102.972 E1.61230
G1 X102.237 Y103.300 E1.63004
G1 X101.927 Y103.490 E1.64213
G1 X101.612 Y103.646 E1.65383
G1 X101.289 Y103.772 E1.66535
G1 X100.801 Y103.905 E1.68218
G1 X100.467 Y103.959 E1.69342
G1 X100.000 Y103.987 E1.70900
G1 X99.649 Y103.971 E1.72067
G1 X99.329 Y103.930 E1.73141
G1 X98.818 Y103.807 E1.74888
G1 X98.484 Y103.687 E1.76069
G1 X98.159 Y103.536 E1.77261
G1 X97.850 Y103.357 E1.78451
G1 X97.555 Y103.149 E1.79649
G1 X97.280 Y102.915 E1.80849
G1 X97.027 Y102.656 E1.82053
G1 X96.747 Y102.303 E1.83555
G1 X97.038 Y102.022 F7800.000
G1 X96.861 Y101.735 E1.84678 F600.000
G1 X96.659 Y101.306 E1.86256
G1 X96.438 Y100.570 E1.88810
G1 X96.452 Y100.570 E1.88854
G1 X96.415 Y100.135 E1.90307
G1 X96.416 Y99.846 E1.91269
G1 X96.467 Y99.382 E1.92822
G1 X96.535 Y99.071 E1.93879
G1 X96.688 Y98.623 E1.95453
G1 X96.822 Y98.337 E1.96504
G1 X96.980 Y98.065 E1.97550
G1 X97.160 Y97.810 E1.98588
G1 X97.358 Y97.575 E1.99612
G1 X97.575 Y97.358 E2.00634
G1 X97.937 Y97.067 E2.02177
G1 X98.340 Y96.821 E2.03747
G1 X98.628 Y96.687 E2.04805
G1 X98.928 Y96.578 E2.05864
G1 X99.237 Y96.496 E2.06927
G1 X99.552 Y96.442 E2.07991
G1 X99.870 Y96.416 E2.09052
G1 X100.186 Y96.419 E2.10104
G1 X100.651 Y96.474 E2.11661
G1 X101.120 Y96.585 E2.13266
G1 X101.515 Y96.750 E2.14688
G1 X101.921 Y96.972 E2.16227
G1 X102.302 Y97.250 E2.17797
G1 X102.537 Y97.465 E2.18855
G1 X102.752 Y97.700 E2.19914
G1 X102.946 Y97.954 E2.20977
G1 X103.116 Y98.224 E2.22040
G1 X103.262 Y98.508 E2.23101
G1 X103.381 Y98.802 E2.24154
G1 X103.508 Y99.252 E2.25710
G1 X103.559 Y99.554 E2.26728
G1 X103.587 Y100.003 E2.28224
G1 X103.574 Y100.306 E2.29232
G1 X103.535 Y100.611 E2.30255
G1 X103.426 Y101.063 E2.31803
G1 X103.318 Y101.363 E2.32864
G1 X103.182 Y101.655 E2.33936
G1 X103.021 Y101.934 E2.35006
G1 X102.834 Y102.198 E2.36082
G1 X102.623 Y102.446 E2.37163
G1 X102.391 Y102.674 E2.38246
G1 X102.009 Y102.971 E2.39855
G1 X101.734 Y103.140 E2.40930
G1 X101.450 Y103.280 E2.41984
G1 X101.160 Y103.394 E2.43020
G1 X100.721 Y103.513 E2.44534
G1 X100.420 Y103.562 E2.45545
G1 X100.000 Y103.586 E2.46944
G1 X99.688 Y103.573 E2.47985
G1 X99.393 Y103.535 E2.48974
G1 X98.937 Y103.425 E2.50534
G1 X98.636 Y103.317 E2.51597
G1 X98.344 Y103.181 E2.52669
G1 X98.065 Y103.020 E2.53739
G1 X97.801 Y102.833 E2.54817
G1 X97.553 Y102.622 E2.55897
G1 X97.326 Y102.390 E2.56981
G1 X97.073 Y102.071 E2.58332
G1 X96.702 Y102.045 F7800.000
G1 F1800.000 E1.58332
G92 E0
G1 X108.961 Y100.647 F7800.000
G1 E1.00000 F1800.000
G1 X108.872 Y101.413 E1.02564 F600.000
G1 X108.671 Y102.352 E1.05759
G1 X108.368 Y103.270 E1.08972
G1 X108.049 Y103.991 E1.11596
G1 X107.863 Y104.345 E1.12924
G1 X107.554 Y104.862 E1.14929
G1 X107.085 Y105.523 E1.17625
G1 X106.828 Y105.839 E1.18978
G1 X106.417 Y106.287 E1.21001
G1 X105.818 Y106.845 E1.23725
G1 X105.176 Y107.343 E1.26426
G1 X104.498 Y107.777 E1.29105
G1 X103.778 Y108.151 E1.31802
G1 X103.411 Y108.311 E1.33134
G1 X102.849 Y108.520 E1.35128
G1 X102.095 Y108.736 E1.37738
G1 X101.157 Y108.909 E1.40908
G1 X100.242 Y108.981 E1.43963
G1 X99.344 Y108.960 E1.46951
G1 X98.568 Y108.869 E1.49548
G1 X97.651 Y108.671 E1.52670
G1 X97.097 Y108.502 E1.54594
G1 X96.731 Y108.368 E1.55893
G1 X96.008 Y108.048 E1.58523
G1 X95.479 Y107.763 E1.60521
G1 X95.135 Y107.553 E1.61861
G1 X94.474 Y107.083 E1.64558
G1 X94.106 Y106.780 E1.66145
G1 X93.705 Y106.410 E1.67958
G1 X93.286 Y105.969 E1.69980
G1 X92.774 Y105.338 E1.72684
G1 X92.431 Y104.839 E1.74699
G1 X92.222 Y104.496 E1.76035
G1 X91.848 Y103.775 E1.78735
G1 X91.688 Y103.409 E1.80066
G1 X91.479 Y102.848 E1.82055
G1 X91.264 Y102.097 E1.84655
G1 X91.091 Y101.162 E1.87817
G1 X91.018 Y100.212 E1.90987
G1 X91.034 Y99.430 E1.93588
G1 X91.067 Y99.043 E1.94877
G1 X91.148 Y98.464 E1.96824
G1 X91.316 Y97.696 E1.99440
G1 X91.551 Y96.944 E2.02058
G1 X91.773 Y96.389 E2.04046
G1 X91.940 Y96.030 E2.05363
G1 X92.218 Y95.511 E2.07321
G1 X92.426 Y95.168 E2.08657
G1 X92.876 Y94.526 E2.11263
G1 X93.376 Y93.930 E2.13851
G1 X94.053 Y93.267 E2.17002
G1 X94.794 Y92.679 E2.20149
G1 X95.443 Y92.258 E2.22720
G1 X95.958 Y91.977 E2.24674
G1 X96.315 Y91.807 E2.25987
G1 X97.053 Y91.513 E2.28631
G1 X97.820 Y91.285 E2.31291
G1 X98.605 Y91.125 E2.33957
G1 X99.400 Y91.037 E2.36618
G1 X99.798 Y91.019 E2.37944
G1 X100.391 Y91.025 E2.39916
G1 X101.189 Y91.096 E2.42578
G1 X101.579 Y91.156 E2.43890
G1 X102.151 Y91.278 E2.45838
G1 X102.892 Y91.495 E2.48404
G1 X103.777 Y91.849 E2.51574
G1 X104.609 Y92.289 E2.54705
G1 X105.409 Y92.827 E2.57911
G1 X105.866 Y93.196 E2.59866
G1 X106.159 Y93.460 E2.61179
G1 X106.713 Y94.030 E2.63822
G1 X107.218 Y94.651 E2.66483
G1 X107.666 Y95.315 E2.69148
G1 X108.052 Y96.016 E2.71809
G1 X108.221 Y96.377 E2.73134
G1 X108.442 Y96.927 E2.75107
G1 X108.629 Y97.500 E2.77110
G1 X108.731 Y97.883 E2.78429
G1 X108.882 Y98.650 E2.81029
G1 X108.976 Y99.607 E2.84228
G1 X108.983 Y100.138 E2.85993
G1 X108.965 Y100.587 E2.87490
G1 X109.368 Y100.550 F7800.000
G1 X109.267 Y101.478 E2.90596 F600.000
G1 X109.194 Y101.882 E2.91960
G1 X109.057 Y102.457 E2.93928
G1 X108.880 Y103.033 E2.95932
G1 X108.740 Y103.415 E2.97285
G1 X108.407 Y104.169 E3.00026
G1 X108.213 Y104.538 E3.01413
G1 X107.891 Y105.079 E3.03507
G1 X107.401 Y105.769 E3.06323
G1 X106.848 Y106.416 E3.09152
G1 X106.238 Y107.010 E3.11986
G1 X105.578 Y107.546 E3.14811
G1 X104.878 Y108.016 E3.17616
G1 X104.343 Y108.318 E3.19659
G1 X103.949 Y108.513 E3.21122
G1 X103.600 Y108.670 E3.22394
G1 X103.172 Y108.832 E3.23915
G1 X102.385 Y109.076 E3.26657
G1 X101.991 Y109.170 E3.28003
G1 X101.403 Y109.278 E3.29992
G1 X100.817 Y109.348 E3.31956
G1 X100.404 Y109.375 E3.33332
G1 X99.513 Y109.371 E3.36295
G1 X98.913 Y109.321 E3.38300
G1 X98.507 Y109.264 E3.39662
G1 X97.739 Y109.107 E3.42271
G1 X97.160 Y108.944 E3.44269
G1 X96.776 Y108.813 E3.45619
G1 X96.017 Y108.497 E3.48355
G1 X95.460 Y108.213 E3.50434
G1 X95.097 Y108.001 E3.51831
G1 X94.397 Y107.527 E3.54643
G1 X93.739 Y106.990 E3.57468
G1 X93.427 Y106.697 E3.58893
G1 X92.987 Y106.235 E3.61014
G1 X92.452 Y105.576 E3.63837
G1 X92.093 Y105.055 E3.65942
G1 X91.876 Y104.696 E3.67336
G1 X91.486 Y103.946 E3.70149
G1 X91.318 Y103.561 E3.71547
G1 X91.100 Y102.975 E3.73625
G1 X90.875 Y102.190 E3.76342
G1 X90.754 Y101.602 E3.78337
G1 X90.695 Y101.214 E3.79644
G1 X90.651 Y100.816 E3.80974
G1 X90.618 Y100.221 E3.82958
G1 X90.635 Y99.404 E3.85674
G1 X90.669 Y99.001 E3.87021
G1 X90.754 Y98.395 E3.89055
G1 X90.930 Y97.593 E3.91787
G1 X91.176 Y96.806 E3.94530
G1 X91.407 Y96.229 E3.96597
G1 X91.581 Y95.854 E3.97973
G1 X91.872 Y95.309 E4.00026
G1 X92.088 Y94.954 E4.01407
G1 X92.559 Y94.282 E4.04136
G1 X93.082 Y93.660 E4.06840
G1 X93.365 Y93.364 E4.08201
G1 X93.788 Y92.967 E4.10132
G1 X94.087 Y92.713 E4.11436
G1 X94.562 Y92.353 E4.13420
G1 X95.240 Y91.913 E4.16106
G1 X95.778 Y91.620 E4.18147
G1 X96.151 Y91.442 E4.19518
G1 X96.922 Y91.136 E4.22280
G1 X97.722 Y90.897 E4.25058
G1 X98.543 Y90.730 E4.27843
G1 X99.374 Y90.637 E4.30622
G1 X99.868 Y90.615 E4.32267
G1 X100.411 Y90.626 E4.34075
G1 X101.241 Y90.699 E4.36848
G1 X101.649 Y90.762 E4.38219
G1 X102.247 Y90.889 E4.40252
G1 X103.021 Y91.116 E4.42934
G1 X103.945 Y91.486 E4.46245
G1 X104.814 Y91.945 E4.49515
G1 X105.321 Y92.271 E4.51517
G1 X105.649 Y92.508 E4.52865
G1 X106.127 Y92.893 E4.54907
G1 X106.434 Y93.169 E4.56278
G1 X107.012 Y93.764 E4.59039
G1 X107.539 Y94.413 E4.61818
G1 X108.007 Y95.107 E4.64602
G1 X108.411 Y95.838 E4.67382
G1 X108.587 Y96.216 E4.68766
G1 X108.819 Y96.793 E4.70835
G1 X109.013 Y97.388 E4.72919
G1 X109.120 Y97.788 E4.74295
G1 X109.278 Y98.590 E4.77012
G1 X109.330 Y98.989 E4.78353
G1 X109.376 Y99.592 E4.80363
G1 X109.372 Y100.490 E4.83349
G1 X109.008 Y100.723 F7800.000
G1 F1800.000 E3.83349
G92 E0
G1 X104.328 Y99.981 F7800.000
G1 E1.00000 F1800.000
G1 X106.314 Y99.449 E1.10743 F1054.687
G1 X106.596 Y98.398 E1.16428
G1 X108.380 Y97.920 E1.26079
G1 X108.621 Y100.457 E1.39395
G1 X107.246 Y100.826 E1.46834
G1 X106.477 Y100.056 E1.52520
G1 X104.374 Y100.620 E1.63891
G1 X104.092 Y101.671 E1.69577
G1 X103.977 Y101.703 E1.70203
G1 X103.553 Y102.465 F7800.000
G1 X104.255 Y102.278 E1.74002 F1054.687
G1 X105.025 Y103.047 E1.79688
G1 X107.127 Y102.484 E1.91060
G1 X107.409 Y101.433 E1.96745
G1 X108.565 Y101.123 E2.03000
G1 X107.835 Y103.636 E2.16674
G1 X107.290 Y103.091 E2.20705
G1 X105.187 Y103.654 E2.32076
G1 X104.906 Y104.705 E2.37762
G1 X102.803 Y105.269 E2.49133
G1 X102.034 Y104.499 E2.54819
G1 X99.931 Y105.063 E2.66191
G1 X99.650 Y106.114 E2.71876
G1 X97.547 Y106.677 E2.83248
G1 X96.778 Y105.908 E2.88933
G1 X94.675 Y106.471 E3.00305
G1 X94.602 Y106.746 E3.01791
G1 F1800.000 E2.01791
G92 E0
G1 X93.147 Y105.254 F7800.000
G1 E1.00000 F1800.000
G1 X93.743 Y105.094 E1.03222 F1054.687
G1 X94.513 Y105.864 E1.08908
G1 X96.615 Y105.301 E1.20279
G1 X96.897 Y104.249 E1.25965
G1 X98.156 Y103.911 E1.32779
G1 X97.408 Y103.463 F7800.000
G1 X96.734 Y103.642 E1.36422 F1054.687
G1 X95.965 Y102.873 E1.42108
G1 X93.862 Y103.436 E1.53479
G1 X93.581 Y104.487 E1.59165
G1 X92.758 Y104.708 E1.63613
G1 X91.699 Y102.390 E1.76929
G1 X92.930 Y102.060 E1.83589
G1 X93.700 Y102.829 E1.89274
G1 X95.802 Y102.266 E2.00646
G1 X95.980 Y101.601 E2.04242
G1 X95.592 Y100.282 F7800.000
G1 X95.151 Y99.838 E2.07505 F1054.687
G1 X93.049 Y100.402 E2.18877
G1 X92.767 Y101.453 E2.24562
G1 X91.546 Y101.780 E2.31169
G1 X91.394 Y99.219 E2.44574
G1 X92.117 Y99.025 E2.48484
G1 X92.886 Y99.795 E2.54170
G1 X94.989 Y99.232 E2.65541
G1 X95.271 Y98.180 E2.71227
G1 X96.201 Y97.931 E2.76260
G1 X96.775 Y97.126 F7800.000
G1 X95.108 Y97.573 E2.85278 F1054.687
G1 X94.338 Y96.804 E2.90964
G1 X92.236 Y97.367 E3.02335
G1 X91.954 Y98.418 E3.08021
G1 X91.483 Y98.545 E3.10572
G1 X92.013 Y96.700 E3.20603
G1 X92.073 Y96.760 E3.21051
G1 X94.176 Y96.197 E3.32422
G1 X94.457 Y95.146 E3.38108
G1 X96.560 Y94.582 E3.49480
G1 X97.329 Y95.352 E3.55165
G1 X99.432 Y94.789 E3.66537
G1 X99.713 Y93.737 E3.72222
G1 X101.816 Y93.174 E3.83594
G1 X102.585 Y93.944 E3.89280
G1 X104.688 Y93.380 E4.00651
G1 X104.833 Y92.839 E4.03579
G1 X106.646 Y94.482 E4.16361
G1 X105.620 Y94.757 E4.21910
G1 X104.850 Y93.987 E4.27596
G1 X102.748 Y94.551 E4.38968
G1 X102.466 Y95.602 E4.44653
G1 X101.390 Y95.890 E4.50475
G1 X102.253 Y96.309 F7800.000
G1 X102.629 Y96.209 E4.52508 F1054.687
G1 X103.398 Y96.978 E4.58193
G1 X105.501 Y96.415 E4.69565
G1 X105.782 Y95.364 E4.75250
G1 X107.063 Y95.020 E4.82177
G1 X108.210 Y97.315 E4.95579
G1 X106.433 Y97.791 E5.05189
G1 X105.663 Y97.022 E5.10875
G1 X103.583 Y97.579 E5.22127
G1 F1800.000 E4.22127
G92 E0
G1 X99.877 Y95.678 F7800.000
G1 E1.00000 F1800.000
G1 X99.594 Y95.396 E1.02088 F1054.687
G1 X97.492 Y95.959 E1.13459
G1 X97.317 Y96.608 E1.16971
G1 F1800.000 E0.16971
G92 E0
G1 X93.769 Y94.013 F7800.000
G1 E1.00000 F1800.000
G1 X94.295 Y94.539 E1.03885 F1054.687
G1 X96.397 Y93.976 E1.15257
G1 X96.679 Y92.924 E1.20943
G1 X98.781 Y92.361 E1.32314
G1 X99.551 Y93.131 E1.38000
G1 X101.653 Y92.567 E1.49371
G1 X101.917 Y91.583 E1.54695
G1 F1800.000 E0.54695
G92 E0
G1 X98.697 Y91.461 F7800.000
G1 E1.00000 F1800.000
G1 X98.619 Y91.754 E1.01583 F1054.687
G1 X96.516 Y92.317 E1.12954
G1 X96.367 Y92.168 E1.14060
G1 F1800.000 E0.14060
G92 E0
G1 X99.612 Y104.299 F7800.000
G1 E1.00000 F1800.000
G1 X99.769 Y104.456 E1.01156 F1054.687
G1 X100.286 Y104.317 E1.03954
G1 F1800.000 E0.03954
G92 E0
G1 X100.607 Y108.611 F7800.000
G1 E1.00000 F1800.000
G1 X100.744 Y108.097 E1.02781 F1054.687
G1 X102.847 Y107.534 E1.14152
G1 X103.296 Y107.983 E1.17469
G1 F1800.000 E0.17469
G92 E0
G1 X106.239 Y105.974 F7800.000
